; generated by PrusaSlicer 2.4.0 on 2025-06-14 at 19:46:37 UTC

; 

; external perimeters extrusion width = 0.45mm
; perimeters extrusion width = 0.45mm
; infill extrusion width = 0.45mm
; solid infill extrusion width = 0.45mm
; top infill extrusion width = 0.40mm
; first layer extrusion width = 0.70mm

M107
M104 S200 ; set temperature
;TYPE:Custom
G28 ; home all axes
G1 Z5 F5000 ; lift nozzle
M109 S200 ; set temperature and wait for it to be reached
G21 ; set units to millimeters
G90 ; use absolute coordinates
M82 ; use absolute distances for extrusion
G92 E0
; Filament gcode
M107
;LAYER_CHANGE
;Z:0.35
;HEIGHT:0.35
G1 Z.35 F7800
G1 E-2 F2400
G92 E0
G1 X90 Y94.227 F7800
G1 E2 F2400
;TYPE:Skirt/Brim
;WIDTH:0.7
G1 F1800
G1 X91.442 Y93.277 E2.15701
G1 X92.662 Y92.755 E2.27772
G1 X94.323 Y92.37 E2.43271
G1 X95.413 Y92.292 E2.53209
G1 X105.217 Y92.322 E3.42363
G1 X107.274 Y92.733 E3.61436
G1 X108.842 Y93.433 E3.77048
G1 X109.947 Y94.186 E3.89205
G1 X111.421 Y95.706 E4.08458
G1 X112.14 Y96.832 E4.20605
G1 X112.684 Y98.066 E4.3287
G1 X113.035 Y100.37 E4.54058
G1 X112.696 Y102.295 E4.71836
G1 X112.149 Y103.549 E4.84275
G1 X111.456 Y104.643 E4.96049
G1 X109.993 Y106.173 E5.15296
G1 X108.551 Y107.123 E5.30999
G1 X107.331 Y107.644 E5.43069
G1 X105.669 Y108.028 E5.58573
G1 X104.583 Y108.106 E5.6848
G1 X94.779 Y108.076 E6.57625
G1 X92.722 Y107.665 E6.76698
G1 X91.154 Y106.965 E6.92312
G1 X89.75 Y105.96 E7.08007
G1 X88.575 Y104.692 E7.23731
G1 X87.856 Y103.566 E7.35878
G1 X87.312 Y102.331 E7.48152
G1 X86.962 Y100.027 E7.69339
G1 X87.3 Y98.101 E7.87116
G1 X87.847 Y96.85 E7.99537
G1 X88.777 Y95.45 E8.14822
G1 X89.957 Y94.27 E8.29994
G1 E6.29994 F2400
G92 E0
G1 X94.971 Y100.008 F7800
G1 E2 F2400
;TYPE:Perimeter
G1 F1800
G1 X95.23 Y99.914 E2.02499
G1 X95.476 Y99.89 E2.04751
G1 X104.523 Y99.89 E2.87009
G1 X104.77 Y99.915 E2.89267
G1 X104.96 Y99.973 E2.91073
G1 X105.376 Y100.199 E2.95385
G1 X104.969 Y100.42 E2.99602
G1 X104.767 Y100.483 E3.01529
G1 X104.52 Y100.508 E3.03783
G1 X95.476 Y100.508 E3.86018
G1 X95.23 Y100.483 E3.88272
G1 X95.027 Y100.42 E3.90199
G1 X94.62 Y100.199 E3.94415
G1 X94.919 Y100.037 E3.97506
G1 X93.974 Y100.199 F7800
;TYPE:External perimeter
G1 F1800
G1 X94.071 Y100.001 E3.99508
G1 X94.267 Y99.752 E4.02394
G1 X94.512 Y99.546 E4.053
G1 X94.782 Y99.4 E4.08093
G1 X95.104 Y99.299 E4.11166
G1 X95.446 Y99.265 E4.14283
G1 X104.553 Y99.265 E4.97101
G1 X104.893 Y99.299 E5.00203
G1 X105.202 Y99.394 E5.03145
G1 X105.484 Y99.547 E5.06062
G1 X105.729 Y99.752 E5.08968
G1 X105.926 Y100.001 E5.11854
G1 X106.022 Y100.199 E5.13855
G1 X105.926 Y100.397 E5.15856
G1 X105.729 Y100.646 E5.18742
G1 X105.484 Y100.851 E5.21648
G1 X105.214 Y100.998 E5.24449
G1 X104.892 Y101.099 E5.27515
G1 X104.551 Y101.133 E5.30632
G1 X95.446 Y101.133 E6.13425
G1 X95.104 Y101.099 E6.16543
G1 X94.783 Y100.998 E6.19608
G1 X94.512 Y100.851 E6.22409
G1 X94.267 Y100.646 E6.25315
G1 X94.071 Y100.397 E6.28201
G1 X94 Y100.253 E6.29656
G1 X94.175 Y100.11 F7800
;LAYER_CHANGE
;Z:0.55
;HEIGHT:0.2
G1 Z.55 F7800
G1 X95.412 Y99.903
;TYPE:Perimeter
;WIDTH:0.45
G1 F900
G1 X104.571 Y99.902 E6.60658
G1 X104.801 Y99.924 E6.61442
G1 X105.013 Y99.993 E6.62195
G1 X105.146 Y100.065 E6.62709
G1 X105.306 Y100.199 E6.63413
G1 X105.147 Y100.332 E6.64115
G1 X104.987 Y100.419 E6.6473
G1 X104.836 Y100.465 E6.65265
G1 X104.562 Y100.496 E6.66199
G1 X100.897 Y100.496 E6.78605
G1 X99.998 Y100.478 E6.81647
G1 X99.1 Y100.496 E6.84688
G1 X95.426 Y100.496 E6.97122
G1 X95.195 Y100.474 E6.97911
G1 X94.985 Y100.406 E6.98655
G1 X94.85 Y100.333 E6.99177
G1 X94.691 Y100.199 E6.9988
G1 X94.85 Y100.065 E7.00584
G1 X94.984 Y99.993 E7.01098
G1 X95.195 Y99.924 E7.01851
G1 X95.352 Y99.909 E7.02385
G1 X94.443 Y99.876 F7800
G1 F900
G1 X94.62 Y99.727 E7.03167
G1 X94.822 Y99.617 E7.03948
G1 X95.112 Y99.523 E7.04977
G1 X95.406 Y99.494 E7.05978
G1 X104.59 Y99.494 E7.37066
G1 X104.885 Y99.523 E7.38068
G1 X105.174 Y99.617 E7.39097
G1 X105.377 Y99.727 E7.39877
G1 X105.577 Y99.896 E7.40765
G1 X105.734 Y100.094 E7.41621
G1 X105.784 Y100.199 E7.42014
G1 X105.735 Y100.304 E7.42406
G1 X105.578 Y100.502 E7.43262
G1 X105.377 Y100.671 E7.44149
G1 X105.145 Y100.796 E7.45041
G1 X104.919 Y100.865 E7.45841
G1 X104.585 Y100.904 E7.4698
G1 X100.892 Y100.904 E7.59478
G1 X99.998 Y100.886 E7.62506
G1 X99.104 Y100.904 E7.65534
G1 X95.406 Y100.904 E7.78049
G1 X95.111 Y100.875 E7.79053
G1 X94.824 Y100.782 E7.80074
G1 X94.62 Y100.671 E7.80862
G1 X94.419 Y100.502 E7.8175
G1 X94.262 Y100.304 E7.82606
G1 X94.212 Y100.199 E7.82998
G1 X94.262 Y100.094 E7.83391
G1 X94.401 Y99.918 E7.84149
G1 X93.763 Y100.199 F7800
;TYPE:External perimeter
G1 F900
G1 X93.913 Y99.878 E7.85349
G1 X94.125 Y99.611 E7.86505
G1 X94.389 Y99.389 E7.87671
G1 X94.661 Y99.241 E7.88718
G1 X95.028 Y99.123 E7.90023
G1 X95.386 Y99.087 E7.91242
G1 X104.61 Y99.087 E8.22463
G1 X104.968 Y99.123 E8.23682
G1 X105.335 Y99.241 E8.24987
G1 X105.607 Y99.389 E8.26034
G1 X105.871 Y99.611 E8.272
G1 X106.083 Y99.878 E8.28356
G1 X106.234 Y100.199 E8.29556
G1 X106.083 Y100.52 E8.30755
G1 X105.871 Y100.787 E8.31911
G1 X105.607 Y101.009 E8.33077
G1 X105.303 Y101.174 E8.34247
G1 X105.003 Y101.265 E8.35311
G1 X104.608 Y101.311 E8.36655
G1 X100.888 Y101.311 E8.49246
G1 X99.998 Y101.293 E8.5226
G1 X99.108 Y101.311 E8.55274
G1 X95.386 Y101.311 E8.67871
G1 X95.028 Y101.275 E8.6909
G1 X94.663 Y101.158 E8.70387
G1 X94.389 Y101.009 E8.71443
G1 X94.125 Y100.787 E8.72609
G1 X93.913 Y100.52 E8.73765
G1 X93.788 Y100.253 E8.74761
G1 X94.087 Y100.056 F7800
G1 X95.068 Y100.219
;TYPE:Gap fill
;WIDTH:0.1939
G1 F1200
G1 X95.252 Y100.199 E8.74994
;WIDTH:0.230578
G1 X95.44 Y100.199 E8.75287
;WIDTH:0.230706
G1 X95.441 Y100.199 E8.75289
;WIDTH:0.230707
G1 X99.097 Y100.203 E8.80997
;WIDTH:0.223429
G1 X99.398 Y100.2 E8.81449
;WIDTH:0.216785
G1 X99.398 Y100.2 E8.8145
;WIDTH:0.216779
G1 X99.997 Y100.193 E8.82314
;WIDTH:0.205709
G1 X100 Y100.193 E8.82319
;WIDTH:0.225132
G1 X100.9 Y100.202 E8.83682
;WIDTH:0.230724
G1 X104.545 Y100.199 E8.89374
;WIDTH:0.230722
G1 X104.556 Y100.198 E8.89393
;WIDTH:0.229406
G1 X104.744 Y100.197 E8.89684
;WIDTH:0.189618
G1 X104.934 Y100.216 E8.89917
;LAYER_CHANGE
;Z:0.75
;HEIGHT:0.2
G1 Z.75 F7800
G1 E6.89917 F2400
G92 E0
G1 X95.314 Y99.87 F7800
G1 E2 F2400
;TYPE:Perimeter
;WIDTH:0.45
G1 F900
G1 X98.866 Y99.875 E2.12023
G1 X99.998 Y99.93 E2.15859
G1 X101.406 Y99.863 E2.20633
G1 X104.608 Y99.863 E2.31471
G1 X104.836 Y99.885 E2.32245
G1 X105.063 Y99.96 E2.33053
G1 X105.184 Y100.026 E2.33522
G1 X105.39 Y100.199 E2.34431
G1 X105.185 Y100.371 E2.35337
G1 X105.025 Y100.458 E2.35952
G1 X104.886 Y100.5 E2.36444
G1 X104.597 Y100.535 E2.37431
G1 X101.406 Y100.535 E2.4823
G1 X99.998 Y100.468 E2.53002
G1 X98.59 Y100.535 E2.57775
G1 X95.388 Y100.535 E2.68613
G1 X95.16 Y100.513 E2.69389
G1 X94.936 Y100.439 E2.70186
G1 X94.812 Y100.372 E2.70664
G1 X94.606 Y100.199 E2.71573
G1 X94.812 Y100.026 E2.72482
G1 X94.934 Y99.96 E2.7295
G1 X95.16 Y99.885 E2.73758
G1 X95.254 Y99.876 E2.74078
G1 X94.371 Y99.869 F7800
G1 F900
G1 X94.582 Y99.688 E2.75017
G1 X94.771 Y99.585 E2.75747
G1 X95.075 Y99.485 E2.76831
G1 X95.367 Y99.456 E2.77822
G1 X98.876 Y99.468 E2.89701
G1 X99.998 Y99.523 E2.93503
G1 X101.397 Y99.456 E2.98243
G1 X104.628 Y99.456 E3.09182
G1 X104.921 Y99.485 E3.10177
G1 X105.225 Y99.585 E3.11261
G1 X105.415 Y99.688 E3.11991
G1 X105.615 Y99.857 E3.12878
G1 X105.778 Y100.062 E3.13764
G1 X105.848 Y100.199 E3.14285
G1 X105.778 Y100.336 E3.14805
G1 X105.615 Y100.541 E3.15692
G1 X105.415 Y100.709 E3.16578
G1 X105.183 Y100.835 E3.1747
G1 X104.971 Y100.9 E3.18221
G1 X104.621 Y100.942 E3.19413
G1 X101.397 Y100.942 E3.30328
G1 X99.998 Y100.875 E3.35067
G1 X98.6 Y100.942 E3.39807
G1 X95.368 Y100.942 E3.50745
G1 X95.075 Y100.913 E3.51742
G1 X94.774 Y100.814 E3.52815
G1 X94.582 Y100.71 E3.53555
G1 X94.381 Y100.541 E3.54443
G1 X94.218 Y100.336 E3.55329
G1 X94.149 Y100.199 E3.55849
G1 X94.218 Y100.062 E3.5637
G1 X94.334 Y99.916 E3.57
G1 X93.707 Y100.227 F7800
;TYPE:External perimeter
G1 F900
G1 X93.692 Y100.199 E3.57108
G1 X93.874 Y99.841 E3.58466
G1 X94.088 Y99.571 E3.59632
G1 X94.352 Y99.35 E3.60797
G1 X94.609 Y99.21 E3.61788
G1 X94.99 Y99.084 E3.63149
G1 X95.348 Y99.049 E3.64363
G1 X98.887 Y99.061 E3.76343
G1 X99.998 Y99.115 E3.80109
G1 X101.387 Y99.049 E3.84816
G1 X104.648 Y99.049 E3.95855
G1 X105.006 Y99.084 E3.97071
G1 X105.387 Y99.21 E3.98432
G1 X105.645 Y99.35 E3.99423
G1 X105.909 Y99.571 E4.00588
G1 X106.123 Y99.841 E4.01754
G1 X106.304 Y100.199 E4.03112
G1 X106.123 Y100.557 E4.0447
G1 X105.909 Y100.827 E4.05636
G1 X105.645 Y101.048 E4.06801
G1 X105.341 Y101.212 E4.07971
G1 X105.055 Y101.3 E4.08982
G1 X104.646 Y101.349 E4.10378
G1 X101.387 Y101.349 E4.21409
G1 X99.998 Y101.283 E4.26116
G1 X98.609 Y101.349 E4.30822
G1 X95.348 Y101.349 E4.41861
G1 X94.99 Y101.314 E4.43078
G1 X94.612 Y101.189 E4.44427
G1 X94.351 Y101.048 E4.4543
G1 X94.088 Y100.827 E4.46595
G1 X93.874 Y100.557 E4.47761
G1 X93.734 Y100.281 E4.48808
G1 X93.723 Y100.2 F7800
G1 X94.973 Y100.227
;TYPE:Gap fill
;WIDTH:0.273106
G1 F1200
G1 X95.227 Y100.199 E4.49297
;WIDTH:0.307392
G1 X95.402 Y100.199 E4.49683
;WIDTH:0.307624
G1 X95.404 Y100.199 E4.49688
;WIDTH:0.307623
G1 X98.582 Y100.205 E4.56682
;WIDTH:0.296378
G1 X98.857 Y100.199 E4.57262
;WIDTH:0.282289
G1 X99.236 Y100.199 E4.58017
;WIDTH:0.245969
G1 X99.616 Y100.199 E4.58657
;WIDTH:0.20965
G1 X99.995 Y100.199 E4.59183
;WIDTH:0.173328
G1 X99.995 Y100.199 E4.59183
;WIDTH:0.173294
G1 X100.001 Y100.199 E4.59189
;WIDTH:0.173324
G1 X100.001 Y100.199 E4.5919
;WIDTH:0.218174
G1 X100.472 Y100.199 E4.59876
;WIDTH:0.263022
G1 X100.943 Y100.199 E4.60738
;WIDTH:0.307871
G1 X101.414 Y100.199 E4.61776
G1 X101.414 Y100.199 F7800
;WIDTH:0.307872
G1 F1200
G1 X104.577 Y100.199 E4.68743
;WIDTH:0.30787
G1 X104.592 Y100.198 E4.68777
;WIDTH:0.306024
G1 X104.77 Y100.196 E4.69167
;WIDTH:0.267215
G1 X105.032 Y100.222 E4.69658
M106 S252.45
;LAYER_CHANGE
;Z:0.95
;HEIGHT:0.2
G1 Z.95 F7800
G1 E2.69658 F2400
G92 E0
G1 X95.242 Y99.835 F7800
G1 E2 F2400
;TYPE:Perimeter
;WIDTH:0.45
G1 F900
G1 X98.43 Y99.836 E2.10789
G1 X99.525 Y99.956 E2.14517
G1 X99.998 Y99.98 E2.16122
G1 X100.478 Y99.956 E2.17748
G1 X101.38 Y99.846 E2.20823
G1 X101.733 Y99.824 E2.2202
G1 X104.647 Y99.824 E2.31884
G1 X104.871 Y99.846 E2.32647
G1 X105.113 Y99.928 E2.3351
G1 X105.222 Y99.987 E2.33932
G1 X105.36 Y100.103 E2.34541
G1 X105.436 Y100.199 E2.34956
G1 X105.36 Y100.295 E2.3537
G1 X105.223 Y100.41 E2.35976
G1 X105.063 Y100.496 E2.36591
G1 X104.937 Y100.535 E2.37039
G1 X104.632 Y100.573 E2.38078
G1 X101.733 Y100.573 E2.47893
G1 X101.379 Y100.552 E2.4909
G1 X100.478 Y100.442 E2.52165
G1 X99.998 Y100.418 E2.53791
G1 X99.518 Y100.442 E2.55417
G1 X98.617 Y100.552 E2.58492
G1 X98.264 Y100.573 E2.59689
G1 X95.349 Y100.573 E2.69553
G1 X95.124 Y100.551 E2.70319
G1 X94.887 Y100.472 E2.71167
G1 X94.774 Y100.41 E2.71601
G1 X94.636 Y100.295 E2.72211
G1 X94.56 Y100.199 E2.72625
G1 X94.636 Y100.103 E2.7304
G1 X94.774 Y99.987 E2.73649
G1 X94.883 Y99.928 E2.7407
G1 X95.183 Y99.841 E2.75126
G1 X94.306 Y99.864 F7800
G1 F900
G1 X94.544 Y99.649 E2.76212
G1 X94.72 Y99.554 E2.7689
G1 X95.039 Y99.446 E2.7803
G1 X95.328 Y99.417 E2.79013
G1 X98.453 Y99.429 E2.8959
G1 X99.557 Y99.55 E2.9335
G1 X99.998 Y99.572 E2.94845
G1 X100.443 Y99.55 E2.96353
G1 X101.343 Y99.44 E2.99421
G1 X101.72 Y99.417 E3.00702
G1 X104.667 Y99.417 E3.10675
G1 X104.957 Y99.446 E3.11662
G1 X105.276 Y99.554 E3.12802
G1 X105.452 Y99.649 E3.1348
G1 X105.653 Y99.817 E3.14367
G1 X105.816 Y100.022 E3.15253
G1 X105.906 Y100.199 E3.15924
G1 X105.816 Y100.375 E3.16594
G1 X105.653 Y100.58 E3.17479
G1 X105.453 Y100.748 E3.18365
G1 X105.221 Y100.874 E3.19256
G1 X105.023 Y100.934 E3.1996
G1 X104.658 Y100.981 E3.21203
G1 X101.72 Y100.981 E3.31147
G1 X101.342 Y100.958 E3.32428
G1 X100.443 Y100.848 E3.35495
G1 X99.998 Y100.826 E3.37004
G1 X99.553 Y100.848 E3.38512
G1 X98.653 Y100.958 E3.41579
G1 X98.276 Y100.981 E3.4286
G1 X95.329 Y100.981 E3.52833
G1 X95.039 Y100.952 E3.53823
G1 X94.723 Y100.846 E3.54948
G1 X94.544 Y100.749 E3.5564
G1 X94.343 Y100.58 E3.56527
G1 X94.18 Y100.375 E3.57412
G1 X94.091 Y100.199 E3.58083
G1 X94.18 Y100.022 E3.58754
G1 X94.269 Y99.911 E3.59233
G1 X93.649 Y100.199 F7800
;TYPE:External perimeter
G1 F900
G1 X93.836 Y99.801 E3.60722
G1 X94.05 Y99.532 E3.61886
G1 X94.314 Y99.311 E3.63051
G1 X94.557 Y99.179 E3.63986
G1 X94.953 Y99.045 E3.65402
G1 X95.309 Y99.01 E3.66613
G1 X98.476 Y99.022 E3.77332
G1 X99.589 Y99.144 E3.81124
G1 X99.998 Y99.165 E3.8251
G1 X100.408 Y99.144 E3.839
G1 X101.306 Y99.035 E3.8696
G1 X101.708 Y99.01 E3.88325
G1 X104.687 Y99.01 E3.98407
G1 X105.043 Y99.045 E3.9962
G1 X105.44 Y99.179 E4.01036
G1 X105.682 Y99.311 E4.01971
G1 X105.946 Y99.532 E4.03135
G1 X106.16 Y99.801 E4.043
G1 X106.348 Y100.199 E4.05788
G1 X106.16 Y100.596 E4.07275
G1 X105.946 Y100.866 E4.0844
G1 X105.683 Y101.087 E4.09604
G1 X105.379 Y101.251 E4.10773
G1 X105.108 Y101.334 E4.11732
G1 X104.684 Y101.388 E4.1318
G1 X101.708 Y101.388 E4.23252
G1 X101.305 Y101.363 E4.24618
G1 X100.408 Y101.254 E4.27677
G1 X99.998 Y101.233 E4.29067
G1 X99.588 Y101.254 E4.30457
G1 X98.69 Y101.363 E4.33518
G1 X98.288 Y101.388 E4.34882
G1 X95.309 Y101.388 E4.44965
G1 X94.953 Y101.353 E4.46178
G1 X94.56 Y101.221 E4.47579
G1 X94.314 Y101.087 E4.48529
G1 X94.05 Y100.866 E4.49694
G1 X93.836 Y100.596 E4.50859
G1 X93.668 Y100.256 E4.52145
G1 X94.015 Y100.039 F7800
G1 X94.882 Y100.236
;TYPE:Gap fill
;WIDTH:0.352292
G1 F1200
G1 X95.201 Y100.199 E4.5297
;WIDTH:0.384377
G1 X95.365 Y100.199 E4.53436
;WIDTH:0.384628
G1 X95.368 Y100.199 E4.53443
;WIDTH:0.38463
G1 X98.252 Y100.204 E4.6164
;WIDTH:0.373883
G1 X98.409 Y100.2 E4.62071
;WIDTH:0.363856
G1 X98.585 Y100.204 E4.6254
;WIDTH:0.334077
G1 X98.767 Y100.203 E4.62981
;WIDTH:0.292072
G1 X98.949 Y100.202 E4.63359
;WIDTH:0.250067
G1 X99.131 Y100.201 E4.63673
;WIDTH:0.208062
G1 X99.314 Y100.2 E4.63923
;WIDTH:0.166057
G1 X99.496 Y100.199 E4.6411
;WIDTH:0.124052
G1 X99.499 Y100.199 E4.64112
;WIDTH:0.123482
G1 X99.504 Y100.199 E4.64115
;WIDTH:0.122617
G1 X99.507 Y100.199 E4.64117
;WIDTH:0.122307
G1 X99.79 Y100.199 E4.64304
G1 X100.207 Y100.199 F7800
;WIDTH:0.12307
G1 F1200
G1 X100.497 Y100.199 E4.64497
;WIDTH:0.123083
G1 X100.497 Y100.199 E4.64497
;WIDTH:0.123562
G1 X100.5 Y100.199 E4.64499
;WIDTH:0.123587
G1 X100.5 Y100.199 E4.64499
;WIDTH:0.167847
G1 X100.683 Y100.199 E4.64689
;WIDTH:0.212105
G1 X100.865 Y100.199 E4.64945
;WIDTH:0.256364
G1 X101.047 Y100.199 E4.65269
;WIDTH:0.300622
G1 X101.229 Y100.199 E4.65659
;WIDTH:0.344881
G1 X101.412 Y100.199 E4.66117
;WIDTH:0.344935
G1 X101.412 Y100.199 E4.66118
;WIDTH:0.384896
G1 X101.744 Y100.199 E4.67062
G1 X101.744 Y100.199 F7800
;WIDTH:0.3849
G1 F1200
G1 X104.609 Y100.199 E4.75208
G1 X104.629 Y100.198 E4.75264
;WIDTH:0.382384
G1 X105.148 Y100.19 E4.76729
;LAYER_CHANGE
;Z:1.15
;HEIGHT:0.2
G1 Z1.15 F7800
G1 E2.76729 F2400
G92 E0
G1 X95.154 Y99.801 F7800
G1 E2 F2400
;TYPE:Perimeter
;WIDTH:0.45
G1 F900
G1 X95.309 Y99.786 E2.00529
G1 X98.105 Y99.794 E2.09991
G1 X98.604 Y99.866 E2.117
G1 X99.501 Y100.052 E2.148
G1 X99.998 Y100.079 E2.16486
G1 X100.49 Y100.052 E2.18153
G1 X101.752 Y99.803 E2.22508
G1 X101.993 Y99.786 E2.23325
G1 X104.686 Y99.786 E2.32438
G1 X104.925 Y99.809 E2.33253
G1 X105.105 Y99.864 E2.3389
G1 X105.26 Y99.948 E2.34487
G1 X105.398 Y100.064 E2.35097
G1 X105.506 Y100.199 E2.35681
G1 X105.398 Y100.334 E2.36264
G1 X105.261 Y100.449 E2.36869
G1 X105.101 Y100.535 E2.37484
G1 X104.927 Y100.588 E2.38102
G1 X104.686 Y100.612 E2.38923
G1 X101.993 Y100.612 E2.48036
G1 X101.753 Y100.595 E2.4885
G1 X100.49 Y100.346 E2.53209
G1 X99.998 Y100.319 E2.54877
G1 X99.506 Y100.346 E2.56544
G1 X98.244 Y100.595 E2.60899
G1 X98.003 Y100.612 E2.61715
G1 X95.311 Y100.612 E2.70829
G1 X95.071 Y100.589 E2.71644
G1 X94.891 Y100.534 E2.7228
G1 X94.736 Y100.449 E2.72879
G1 X94.598 Y100.334 E2.73488
G1 X94.491 Y100.199 E2.74072
G1 X94.598 Y100.064 E2.74655
G1 X94.735 Y99.949 E2.75261
G1 X94.894 Y99.863 E2.75873
G1 X95.094 Y99.807 E2.76575
G1 X94.241 Y99.859 F7800
G1 F900
G1 X94.305 Y99.778 E2.76926
G1 X94.506 Y99.611 E2.77811
G1 X94.737 Y99.486 E2.787
