; generated by PrusaSlicer 2.4.0 on 2025-06-14 at 19:27:52 UTC

; 

; external perimeters extrusion width = 0.45mm
; perimeters extrusion width = 0.45mm
; infill extrusion width = 0.45mm
; solid infill extrusion width = 0.45mm
; top infill extrusion width = 0.40mm
; first layer extrusion width = 0.70mm

M107
M104 S200 ; set temperature
;TYPE:Custom
G28 ; home all axes
G1 Z5 F5000 ; lift nozzle
M109 S200 ; set temperature and wait for it to be reached
G21 ; set units to millimeters
G90 ; use absolute coordinates
M82 ; use absolute distances for extrusion
G92 E0
; Filament gcode
M107
;LAYER_CHANGE
;Z:0.35
;HEIGHT:0.35
G1 Z.35 F7800
G1 E-2 F2400
G92 E0
G1 X68.24 Y45.753 F7800
G1 E2 F2400
;TYPE:Skirt/Brim
;WIDTH:0.7
G1 F1800
G1 X69.993 Y44.274 E2.20854
G1 X72.145 Y43.481 E2.41708
G1 X73.325 Y43.375 E2.52479
G1 X126.675 Y43.375 E7.37589
G1 X128.934 Y43.772 E7.58443
G1 X130.922 Y44.915 E7.79297
G1 X132.401 Y46.668 E8.00151
G1 X133.194 Y48.82 E8.21006
G1 X133.3 Y50 E8.31777
G1 X133.3 Y70.158 E10.15075
G1 X125.762 Y140.369 E16.57168
G1 X125.125 Y142.572 E16.78022
G1 X123.86 Y144.343 E16.97809
G1 X114.343 Y153.86 E18.20188
G1 X112.465 Y155.176 E18.41042
G1 X109.658 Y155.8 E18.67185
G1 X90.342 Y155.8 E20.4283
G1 X88.083 Y155.403 E20.63684
G1 X85.657 Y153.86 E20.89827
G1 X76.14 Y144.343 E22.12206
G1 X74.824 Y142.465 E22.3306
G1 X74.238 Y140.369 E22.52847
G1 X66.738 Y70.869 E28.88477
G1 X66.7 Y50 E30.78238
G1 X67.097 Y47.741 E30.99093
G1 X68.211 Y45.805 E31.19401
G1 E29.19401 F2400
G92 E0
G1 X116.665 Y135.778 F7800
G1 E2 F2400
;TYPE:Perimeter
G1 F1800
G1 X116.665 Y137.375 E2.14529
G1 X116.449 Y137.251 E2.16795
G1 X116.449 Y138.91 E2.3188
G1 X108.582 Y146.777 E3.33044
G1 X91 Y146.777 E4.92921
G1 X91 Y145.043 E5.08691
G1 X87.885 Y143.245 E5.41389
G1 X83.335 Y138.694 E5.99906
G1 X83.335 Y68.542 E12.37796
G1 X116.449 Y68.542 E15.38902
G1 X116.449 Y72.338 E15.73417
G1 X116.665 Y72.213 E15.75683
G1 X116.665 Y86.375 E17.04462
G1 X116.449 Y86.251 E17.06728
G1 X116.449 Y89.338 E17.34795
G1 X116.665 Y89.213 E17.37061
G1 X116.665 Y103.375 E18.6584
G1 X116.449 Y103.251 E18.68107
G1 X116.449 Y106.338 E18.96174
G1 X116.665 Y106.213 E18.9844
G1 X116.665 Y120.375 E20.27219
G1 X116.449 Y120.251 E20.29485
G1 X116.449 Y123.338 E20.57553
G1 X116.665 Y123.213 E20.59819
G1 X116.665 Y135.718 E21.73523
G1 X116.04 Y135.378 F7800
G1 F1800
G1 X116.04 Y136.293 E21.81848
G1 X115.824 Y136.169 E21.84114
G1 X115.824 Y138.651 E22.06687
G1 X108.323 Y146.152 E23.03143
G1 X91.625 Y146.152 E24.54985
G1 X91.625 Y144.682 E24.68353
G1 X88.269 Y142.744 E25.03584
G1 X83.96 Y138.435 E25.58999
G1 X83.96 Y69.167 E31.88854
G1 X115.824 Y69.167 E34.78596
G1 X115.824 Y73.42 E35.1727
G1 X116.04 Y73.295 E35.19536
G1 X116.04 Y85.293 E36.28631
G1 X115.824 Y85.169 E36.30898
G1 X115.824 Y90.42 E36.78648
G1 X116.04 Y90.295 E36.80914
G1 X116.04 Y102.293 E37.9001
G1 X115.824 Y102.169 E37.92276
G1 X115.824 Y107.42 E38.40027
G1 X116.04 Y107.295 E38.42293
G1 X116.04 Y119.293 E39.51389
G1 X115.824 Y119.169 E39.53655
G1 X115.824 Y124.42 E40.01406
G1 X116.04 Y124.295 E40.03672
G1 X116.04 Y135.318 E41.03898
G1 E39.03898 F2400
G92 E0
G1 X101.444 Y110.036 F7800
G1 E2 F2400
;TYPE:External perimeter
G1 F1800
G1 X101.349 Y110.09 E2.00988
G1 X96.999 Y107.579 E2.46662
G1 X96.999 Y102.556 E2.92335
G1 X101.349 Y100.044 E3.38009
G1 X105.699 Y102.556 E3.83682
G1 X105.699 Y107.579 E4.29356
G1 X101.496 Y110.006 E4.73495
G1 X101.463 Y110.143 F7800
G1 X100.95 Y110.783
G1 F1800
G1 X100.95 Y115.806 E5.19169
G1 X96.6 Y118.317 E5.64842
G1 X92.25 Y115.806 E6.10515
G1 X92.25 Y110.783 E6.56189
G1 X96.6 Y108.271 E7.01862
G1 X100.898 Y110.753 E7.4699
G1 X101.35 Y110.783 F7800
G1 E5.4699 F2400
G92 E0
G1 X96.199 Y107.579 F7800
G1 E2 F2400
G1 F1800
G1 X91.849 Y110.09 E2.45673
G1 X87.499 Y107.579 E2.91347
G1 X87.499 Y102.556 E3.3702
G1 X91.849 Y100.044 E3.82694
G1 X96.199 Y102.556 E4.28367
G1 X96.199 Y107.519 E4.73495
G1 X96.399 Y107.925 F7800
G1 E2.73495 F2400
G92 E0
G1 X91.449 Y110.783 F7800
G1 E2 F2400
G1 F1800
G1 X91.449 Y115.806 E2.45673
G1 X87.1 Y118.317 E2.91347
G1 X84.585 Y116.865 E3.17751
G1 X84.585 Y109.723 E3.82694
G1 X87.1 Y108.271 E4.09098
G1 X91.398 Y110.753 E4.54226
G1 X91.849 Y110.803 F7800
G1 E2.54226 F2400
G92 E0
G1 X86.699 Y107.579 F7800
G1 E2 F2400
G1 F1800
G1 X84.585 Y108.799 E2.22203
G1 X84.585 Y101.335 E2.9008
G1 X86.699 Y102.556 E3.12283
G1 X86.699 Y107.519 E3.57411
G1 X86.876 Y107.937 F7800
G1 E1.57411 F2400
G92 E0
G1 X84.585 Y91.799 F7800
G1 E2 F2400
G1 F1800
G1 X84.585 Y84.335 E2.67877
G1 X86.699 Y85.556 E2.9008
G1 X86.699 Y90.579 E3.35753
G1 X84.637 Y91.769 E3.57411
G1 X84.219 Y91.961 F7800
G1 X84.585 Y92.723
G1 F1800
G1 X87.1 Y91.271 E3.83815
G1 X91.449 Y93.783 E4.29488
G1 X91.449 Y98.806 E4.75162
G1 X87.1 Y101.317 E5.20835
G1 X84.585 Y99.865 E5.47239
G1 X84.585 Y92.783 E6.11636
G1 X84.413 Y92.362 F7800
G1 E4.11636 F2400
G92 E0
G1 X87.499 Y90.579 F7800
G1 E2 F2400
G1 F1800
G1 X87.499 Y85.556 E2.45673
G1 X91.534 Y83.226 E2.88039
G1 X91.849 Y83.044 E2.91347
G1 X96.199 Y85.556 E3.3702
G1 X96.199 Y90.579 E3.82694
G1 X91.849 Y93.09 E4.28367
G1 X87.551 Y90.609 E4.73495
G1 X87.099 Y90.579 F7800
G1 E2.73495 F2400
G92 E0
G1 X92.25 Y93.783 F7800
G1 E2 F2400
G1 F1800
G1 X96.6 Y91.271 E2.45673
G1 X100.95 Y93.783 E2.91347
G1 X100.95 Y98.806 E3.3702
G1 X96.6 Y101.317 E3.82694
G1 X92.25 Y98.806 E4.28367
G1 X92.25 Y93.843 E4.73495
G1 X92.05 Y93.436 F7800
G1 E2.73495 F2400
G92 E0
G1 X96.999 Y90.579 F7800
G1 E2 F2400
G1 F1800
G1 X96.999 Y85.556 E2.45673
G1 X101.034 Y83.226 E2.88039
G1 X101.349 Y83.044 E2.91347
G1 X105.699 Y85.556 E3.3702
G1 X105.699 Y90.579 E3.82694
G1 X101.349 Y93.09 E4.28367
G1 X97.051 Y90.609 E4.73495
G1 X96.599 Y90.579 F7800
G1 E2.73495 F2400
G92 E0
G1 X86.699 Y73.579 F7800
G1 E2 F2400
G1 F1800
G1 X84.585 Y74.799 E2.22203
G1 X84.585 Y69.792 E2.67738
G1 X86.699 Y69.792 E2.86967
G1 X86.699 Y73.519 E3.20855
G1 X86.898 Y73.926 F7800
G1 X87.499 Y73.579
G1 F1800
G1 X87.499 Y69.792 E3.55289
G1 X96.199 Y69.792 E4.34397
G1 X96.199 Y73.579 E4.68831
G1 X91.849 Y76.09 E5.14504
G1 X87.551 Y73.609 E5.59632
G1 X87.099 Y73.579 F7800
G1 X87.099 Y74.271
G1 F1800
G1 X91.449 Y76.783 E6.05306
G1 X91.449 Y81.806 E6.50979
G1 X87.1 Y84.317 E6.96653
G1 X84.585 Y82.865 E7.23057
G1 X84.585 Y75.723 E7.88
G1 X87.048 Y74.301 E8.13858
G1 X87.271 Y73.91 F7800
G1 E6.13858 F2400
G92 E0
G1 X92.25 Y76.783 F7800
G1 E2 F2400
G1 F1800
G1 X96.6 Y74.271 E2.45673
G1 X100.95 Y76.783 E2.91347
G1 X100.95 Y81.806 E3.3702
G1 X96.6 Y84.317 E3.82694
G1 X92.25 Y81.806 E4.28367
G1 X92.25 Y76.843 E4.73495
G1 X92.05 Y76.436 F7800
G1 E2.73495 F2400
G92 E0
G1 X96.999 Y73.579 F7800
G1 E2 F2400
G1 F1800
G1 X96.999 Y69.792 E2.34434
G1 X105.699 Y69.792 E3.13542
G1 X105.699 Y73.579 E3.47976
G1 X101.349 Y76.09 E3.93649
G1 X97.051 Y73.609 E4.38777
G1 X96.599 Y73.579 F7800
G1 E2.38777 F2400
G92 E0
G1 X106.499 Y73.579 F7800
G1 E2 F2400
G1 F1800
G1 X106.499 Y69.792 E2.34434
G1 X115.199 Y69.792 E3.13542
G1 X115.199 Y73.579 E3.47976
G1 X110.849 Y76.09 E3.93649
G1 X106.551 Y73.609 E4.38777
G1 X106.099 Y73.579 F7800
G1 X106.1 Y74.271
G1 F1800
G1 X110.45 Y76.783 E4.84451
G1 X110.45 Y81.806 E5.30124
G1 X106.1 Y84.317 E5.75798
G1 X101.75 Y81.806 E6.21471
G1 X101.75 Y76.783 E6.67145
G1 X106.048 Y74.301 E7.12272
G1 X106.3 Y73.925 F7800
G1 E5.12272 F2400
G92 E0
G1 X111.25 Y76.783 F7800
G1 E2 F2400
G1 F1800
G1 X115.415 Y74.378 E2.43739
G1 X115.415 Y84.211 E3.33151
G1 X111.25 Y81.806 E3.7689
G1 X111.25 Y76.843 E4.22018
G1 X111.051 Y76.436 F7800
G1 E2.22018 F2400
G92 E0
G1 X110.849 Y83.044 F7800
G1 E2 F2400
G1 F1800
G1 X115.199 Y85.556 E2.45673
G1 X115.199 Y90.579 E2.91347
G1 X110.849 Y93.09 E3.3702
G1 X106.499 Y90.579 E3.82694
G1 X106.499 Y85.556 E4.28367
G1 X110.797 Y83.074 E4.73495
G1 X111.049 Y82.698 F7800
G1 E2.73495 F2400
G92 E0
G1 X106.1 Y91.271 F7800
G1 E2 F2400
G1 F1800
G1 X110.45 Y93.783 E2.45673
G1 X110.45 Y98.806 E2.91347
G1 X106.1 Y101.317 E3.3702
G1 X101.75 Y98.806 E3.82694
G1 X101.75 Y93.783 E4.28367
G1 X106.048 Y91.301 E4.73495
G1 X106.3 Y90.925 F7800
G1 E2.73495 F2400
G92 E0
G1 X111.25 Y93.783 F7800
G1 E2 F2400
G1 F1800
G1 X115.415 Y91.378 E2.43739
G1 X115.415 Y101.211 E3.33151
G1 X111.25 Y98.806 E3.7689
G1 X111.25 Y93.843 E4.22018
G1 X111.051 Y93.436 F7800
G1 E2.22018 F2400
G92 E0
G1 X110.849 Y100.044 F7800
G1 E2 F2400
G1 F1800
G1 X115.199 Y102.556 E2.45673
G1 X115.199 Y107.579 E2.91347
G1 X110.849 Y110.09 E3.3702
G1 X106.499 Y107.579 E3.82694
G1 X106.499 Y102.556 E4.28367
G1 X110.797 Y100.074 E4.73495
G1 X111.049 Y99.698 F7800
G1 E2.73495 F2400
G92 E0
G1 X106.1 Y108.271 F7800
G1 E2 F2400
G1 F1800
G1 X110.45 Y110.783 E2.45673
G1 X110.45 Y115.806 E2.91347
G1 X106.1 Y118.317 E3.3702
G1 X101.75 Y115.806 E3.82694
G1 X101.75 Y110.783 E4.28367
G1 X106.048 Y108.301 E4.73495
G1 X106.3 Y107.925 F7800
G1 E2.73495 F2400
G92 E0
G1 X111.25 Y110.783 F7800
G1 E2 F2400
G1 F1800
G1 X115.415 Y108.378 E2.43739
G1 X115.415 Y118.211 E3.33151
G1 X111.25 Y115.806 E3.7689
G1 X111.25 Y110.843 E4.22018
G1 X111.051 Y110.436 F7800
G1 E2.22018 F2400
G92 E0
G1 X115.415 Y125.378 F7800
G1 E2 F2400
G1 F1800
G1 X115.415 Y135.211 E2.89412
G1 X111.25 Y132.806 E3.33151
G1 X111.25 Y127.783 E3.78825
G1 X115.363 Y125.408 E4.22018
G1 X115.791 Y125.239 F7800
G1 X115.199 Y124.579
G1 F1800
G1 X110.849 Y127.09 E4.67691
G1 X106.499 Y124.579 E5.13365
G1 X106.499 Y119.556 E5.59038
G1 X110.849 Y117.044 E6.04712
G1 X115.199 Y119.556 E6.50385
G1 X115.199 Y124.519 E6.95513
G1 X115.399 Y124.925 F7800
G1 E4.95513 F2400
G92 E0
G1 X110.45 Y127.783 F7800
G1 E2 F2400
G1 F1800
G1 X110.45 Y132.806 E2.45673
G1 X106.1 Y135.317 E2.91347
G1 X101.75 Y132.806 E3.3702
G1 X101.75 Y127.783 E3.82694
G1 X106.1 Y125.271 E4.28367
G1 X110.398 Y127.753 E4.73495
G1 X110.85 Y127.783 F7800
G1 E2.73495 F2400
G92 E0
G1 X100.95 Y127.783 F7800
G1 E2 F2400
G1 F1800
G1 X100.95 Y132.806 E2.45673
G1 X96.6 Y135.317 E2.91347
G1 X92.25 Y132.806 E3.3702
G1 X92.25 Y127.783 E3.82694
G1 X96.6 Y125.271 E4.28367
G1 X100.898 Y127.753 E4.73495
G1 X101.35 Y127.783 F7800
G1 X101.349 Y127.09
G1 F1800
G1 X96.999 Y124.579 E5.19169
G1 X96.999 Y119.556 E5.64842
G1 X101.349 Y117.044 E6.10515
G1 X105.699 Y119.556 E6.56189
G1 X105.699 Y124.579 E7.01862
G1 X101.401 Y127.06 E7.4699
G1 X101.149 Y127.436 F7800
G1 E5.4699 F2400
G92 E0
G1 X96.199 Y124.579 F7800
G1 E2 F2400
G1 F1800
G1 X91.849 Y127.09 E2.45673
G1 X87.499 Y124.579 E2.91347
G1 X87.499 Y119.556 E3.3702
G1 X91.849 Y117.044 E3.82694
G1 X96.199 Y119.556 E4.28367
G1 X96.199 Y124.519 E4.73495
G1 X96.399 Y124.925 F7800
G1 E2.73495 F2400
G92 E0
G1 X91.449 Y127.783 F7800
G1 E2 F2400
G1 F1800
G1 X91.449 Y132.806 E2.45673
G1 X87.1 Y135.317 E2.91347
G1 X84.585 Y133.865 E3.17751
G1 X84.585 Y126.723 E3.82694
G1 X87.099 Y125.271 E4.09098
G1 X91.398 Y127.753 E4.54226
G1 X91.849 Y127.803 F7800
G1 E2.54226 F2400
G92 E0
G1 X86.699 Y124.579 F7800
G1 E2 F2400
G1 F1800
G1 X84.585 Y125.799 E2.22203
G1 X84.585 Y118.335 E2.9008
G1 X86.699 Y119.556 E3.12283
G1 X86.699 Y124.519 E3.57411
G1 X86.876 Y124.937 F7800
G1 E1.57411 F2400
G92 E0
G1 X84.585 Y135.335 F7800
G1 E2 F2400
G1 F1800
G1 X86.699 Y136.556 E2.22203
G1 X86.699 Y140.291 E2.5617
G1 X84.585 Y138.176 E2.83363
G1 X84.585 Y135.395 E3.08657
G1 X84.67 Y134.944 F7800
G1 E1.08657 F2400
G92 E0
G1 X87.499 Y136.556 F7800
G1 E2 F2400
G1 F1800
G1 X91.849 Y134.044 E2.45673
G1 X96.199 Y136.556 E2.91347
G1 X96.199 Y141.579 E3.3702
G1 X91.849 Y144.09 E3.82694
G1 X88.653 Y142.244 E4.16257
G1 X87.499 Y141.091 E4.31089
G1 X87.499 Y136.616 E4.71784
G1 X87.338 Y136.19 F7800
G1 E2.71784 F2400
G92 E0
G1 X96.999 Y136.616 F7800
G1 E2 F2400
G1 F1800
G1 X96.999 Y136.556 E2.00546
G1 X101.349 Y134.044 E2.46219
G1 X105.699 Y136.556 E2.91892
G1 X105.699 Y141.579 E3.37566
G1 X101.349 Y144.09 E3.83239
G1 X96.999 Y141.579 E4.28913
G1 X96.999 Y136.676 E4.73495
G1 X96.943 Y136.595 F7800
G1 E2.73495 F2400
G92 E0
G1 X96.6 Y142.271 F7800
G1 E2 F2400
G1 F1800
G1 X100.95 Y144.783 E2.45673
G1 X100.95 Y145.527 E2.52441
G1 X92.25 Y145.527 E3.31549
G1 X92.25 Y144.783 E3.38317
G1 X96.548 Y142.301 E3.83444
G1 X96.844 Y141.955 F7800
G1 E1.83444 F2400
G92 E0
G1 X101.75 Y144.783 F7800
G1 E2 F2400
G1 F1800
G1 X106.1 Y142.271 E2.45673
G1 X109.409 Y144.182 E2.80426
G1 X108.065 Y145.527 E2.97718
G1 X101.75 Y145.527 E3.55142
G1 X101.75 Y144.843 E3.61363
G1 X101.453 Y144.514 F7800
G1 E1.61363 F2400
G92 E0
G1 X106.499 Y141.579 F7800
G1 E2 F2400
G1 F1800
G1 X106.499 Y136.556 E2.45673
G1 X110.849 Y134.044 E2.91347
G1 X115.199 Y136.556 E3.3702
G1 X115.199 Y138.392 E3.53721
G1 X109.995 Y143.597 E4.20647
G1 X106.551 Y141.609 E4.56803
G1 X106.102 Y141.625 F7800
G1 E2.56803 F2400
G92 E0
G1 X90.95 Y62.85 F7800
G1 E2 F2400
;TYPE:Perimeter
G1 F1800
G1 X94.1 Y62.85 E2.28641
G1 X94.1 Y55.35 E2.96838
G1 X105.9 Y55.35 E4.04139
G1 X105.9 Y62.85 E4.72336
G1 X111.1 Y62.85 E5.19615
G1 X111.1 Y51.6 E6.21911
G1 X125.075 Y51.6 E7.48989
G1 X125.075 Y69.496 E9.11716
G1 X117.575 Y76.996 E10.08161
G1 X117.575 Y138.996 E15.71924
G1 X108.996 Y147.575 E16.82253
G1 X91.004 Y147.575 E18.45846
G1 X82.425 Y138.996 E19.56175
G1 X82.425 Y76.996 E25.19938
G1 X74.925 Y69.496 E26.16384
G1 X74.925 Y51.6 E27.7911
G1 X88.9 Y51.6 E29.06188
G1 X88.9 Y62.85 E30.08484
G1 X90.89 Y62.85 E30.26577
G1 X90.55 Y62.225 F7800
G1 F1800
G1 X93.475 Y62.225 E30.53173
G1 X93.475 Y54.725 E31.2137
G1 X106.525 Y54.725 E32.40035
G1 X106.525 Y62.225 E33.08232
G1 X110.475 Y62.225 E33.44147
G1 X110.475 Y50.975 E34.46443
G1 X125.7 Y50.975 E35.84885
G1 X125.7 Y69.754 E37.55647
G1 X118.2 Y77.254 E38.52093
G1 X118.2 Y139.254 E44.15856
G1 X109.254 Y148.2 E45.30892
G1 X90.746 Y148.2 E46.99193
G1 X81.8 Y139.254 E48.14228
G1 X81.8 Y77.254 E53.77991
G1 X74.3 Y69.754 E54.74437
G1 X74.3 Y50.975 E56.45199
G1 X89.525 Y50.975 E57.83641
G1 X89.525 Y62.225 E58.85937
G1 X90.49 Y62.225 E58.94711
G1 X90.15 Y61.6 F7800
;TYPE:External perimeter
G1 F1800
G1 X92.85 Y61.6 E59.19262
G1 X92.85 Y54.1 E59.87459
G1 X107.15 Y54.1 E61.17488
G1 X107.15 Y61.6 E61.85685
G1 X109.85 Y61.6 E62.10236
G1 X109.85 Y50.35 E63.12532
G1 X126.325 Y50.35 E64.62338
G1 X126.325 Y70.013 E66.41136
G1 X118.825 Y77.513 E67.37581
G1 X118.825 Y139.513 E73.01345
G1 X109.513 Y148.825 E74.21088
G1 X90.487 Y148.825 E75.94096
G1 X81.175 Y139.513 E77.13838
G1 X81.175 Y77.513 E82.77602
G1 X73.675 Y70.013 E83.74047
G1 X73.675 Y50.35 E85.52845
G1 X90.15 Y50.35 E87.02651
G1 X90.15 Y61.54 E88.04401
G1 X90.277 Y61.979 F7800
G1 E86.04401 F2400
G92 E0
G1 X87.099 Y69.479 F7800
G1 E2 F2400
;TYPE:Gap fill
;WIDTH:0.250225
G1 F1800
G1 X87.099 Y73.759 E2.10905
;WIDTH:0.277284
G1 X87.099 Y73.809 E2.11054
;WIDTH:0.277283
G1 X87.056 Y73.835 E2.11202
G1 X87.056 Y73.835 F7800
;WIDTH:0.250227
G1 F1800
G1 X86.649 Y74.07 E2.124
;WIDTH:0.250228
G1 X84.272 Y75.442 E2.19392
G1 E.19392 F2400
G92 E0
G1 X82.88 Y77.009 F7800
G1 E2 F2400
;WIDTH:0.360423
G1 F1800
G1 X82.88 Y138.807 E4.56565
G1 X82.887 Y138.823 E4.56639
;WIDTH:0.346879
G1 X82.941 Y138.905 E4.57027
;WIDTH:0.307078
G1 X86.9 Y142.864 E4.75926
;WIDTH:0.307076
G1 X87.612 Y143.577 E4.79325
;WIDTH:0.311096
G1 X87.635 Y143.597 E4.7943
;WIDTH:0.359547
G1 X87.81 Y143.731 E4.80343
;WIDTH:0.407998
G1 X87.985 Y143.865 E4.81411
;WIDTH:0.456449
G1 X88.16 Y143.999 E4.82635
;WIDTH:0.5049
G1 X88.334 Y144.134 E4.84014
;WIDTH:0.553351
G1 X88.509 Y144.268 E4.85549
;WIDTH:0.601802
G1 X88.684 Y144.402 E4.87239
;WIDTH:0.650253
G1 X88.859 Y144.537 E4.89085
;WIDTH:0.698704
G1 X89.034 Y144.671 E4.91086
;WIDTH:0.844057
G1 X89.559 Y145.074 E4.9849
G1 X90.812 Y145.617 F7800
;TYPE:Solid infill
;WIDTH:0.803693
G1 F1800
G1 X90.478 Y145.282 E5.03501
G1 X90.14 Y145.087 E5.07643
G1 X89.754 Y145.589 E5.14353
G1 X90.812 Y146.647 E5.30214
G1 X91.047 Y147.176 F7800
;TYPE:Gap fill
;WIDTH:0.248683
G1 F1800
G1 X108.712 Y147.176 E5.7483
;WIDTH:0.278463
G1 X108.784 Y147.161 E5.75047
;WIDTH:0.307075
G1 X108.818 Y147.147 E5.75174
;WIDTH:0.307081
G1 X110.741 Y145.224 E5.84352
;WIDTH:0.307078
G1 X116.844 Y139.121 E6.13484
;WIDTH:0.346877
G1 X117.263 Y138.483 E6.16503
G1 X117.012 Y138.165 F7800
;WIDTH:0.576253
G1 F1800
G1 X117.034 Y138.115 E6.16898
;WIDTH:0.533087
G1 X117.055 Y138.066 E6.17258
;WIDTH:0.489921
