; generated by PrusaSlicer 2.7.2 on 2025-06-11 at 18:50:46 UTC

; 

; external perimeters extrusion width = 0.45mm
; perimeters extrusion width = 0.45mm
; infill extrusion width = 0.45mm
; solid infill extrusion width = 0.45mm
; top infill extrusion width = 0.40mm
; support material extrusion width = 0.40mm
; first layer extrusion width = 0.70mm

M104 S200 ; set temperature
;TYPE:Custom
G28 ; home all axes
G1 Z5 F5000 ; lift nozzle
M109 S200 ; set temperature and wait for it to be reached
G21 ; set units to millimeters
G90 ; use absolute coordinates
M82 ; use absolute distances for extrusion
G92 E0
; Filament gcode
M107
;LAYER_CHANGE
;Z:0.35
;HEIGHT:0.35
G1 E-2 F2400
G1 Z.35 F7800
G1 X60.197 Y34.619
G1 E0 F2400
;TYPE:Skirt/Brim
;WIDTH:0.7
G1 F1800
G1 X60.906 Y33.387 E.12925
G1 X62.659 Y31.908 E.3378
G1 X64.811 Y31.115 E.54634
G1 X65.99 Y31.009 E.65398
G1 X134.01 Y31.009 E6.83901
G1 X136.268 Y31.406 E7.04748
G1 X138.256 Y32.55 E7.25604
G1 X139.736 Y34.302 E7.46458
G1 X140.529 Y36.455 E7.67321
G1 X140.634 Y37.634 E7.78084
G1 X140.634 Y62.783 E10.06763
G1 X138.075 Y147.592 E17.78279
G1 X137.912 Y148.867 E17.89967
G1 X136.169 Y156.498 E18.61142
G1 X135.855 Y157.515 E18.7082
G1 X135.403 Y158.528 E18.80907
G1 X134.913 Y159.357 E18.89663
G1 X134.263 Y160.216 E18.99458
G1 X133.6 Y160.913 E19.08205
G1 X132.785 Y161.596 E19.17874
G1 X131.845 Y162.208 E19.28073
G1 X130.985 Y162.636 E19.36808
G1 X129.983 Y163.001 E19.46505
G1 X129.051 Y163.226 E19.55223
G1 X127.939 Y163.362 E19.6541
G1 X100.618 Y165.011 E22.14291
G1 X99.382 Y165.011 E22.2553
G1 X71.854 Y163.347 E24.76298
G1 X70.087 Y163.021 E24.92636
G1 X68.421 Y162.353 E25.08957
G1 X67.085 Y161.498 E25.2338
G1 X66.037 Y160.549 E25.36236
G1 X65.094 Y159.367 E25.49985
G1 X64.339 Y157.992 E25.64249
G1 X63.799 Y156.362 E25.79863
G1 X62.088 Y148.867 E26.49768
G1 X61.925 Y147.592 E26.61456
G1 X59.369 Y62.983 E34.31153
G1 X59.366 Y37.634 E36.6165
G1 X59.763 Y35.375 E36.82506
G1 X60.167 Y34.671 E36.89887
G1 E34.89887 F2400
G92 E0
G1 X60.167 Y34.671 F7800
G1 X128.36 Y60.15
G1 E2 F2400
;TYPE:Support material interface
;WIDTH:0.4
G1 F1800
G1 X128.36 Y62.82 E2.12623
G1 X128.695 Y62.82 E2.14207
G1 X128.695 Y60.301 E2.26116
G1 X129.031 Y60.301 E2.27704
G1 X129.031 Y62.82 E2.39613
G1 X129.367 Y62.82 E2.41201
G1 X129.367 Y60.301 E2.5311
G1 X129.702 Y60.301 E2.54694
G1 X129.702 Y62.82 E2.66603
G1 X129.782 Y62.82 E2.66981
G1 X130.038 Y62.82 E2.68191
G1 X130.038 Y60.301 E2.801
G1 X130.373 Y60.301 E2.81684
G1 X130.424 Y65.973 E3.085
G1 X130.709 Y65.973 E3.09847
G1 X130.709 Y60.301 E3.36662
G1 X131.045 Y60.301 E3.3825
G1 X131.045 Y66.124 E3.65779
G1 E1.65779 F2400
G92 E0
G1 X131.045 Y66.124 F7800
G1 X134.01 Y62.783
G1 E2 F2400
;TYPE:Support material
;WIDTH:0.7
G1 F1800
G1 X131.71 Y62.783 E2.20914
G1 X131.71 Y59.783 E2.48193
G1 X127.838 Y59.783 E2.83401
G1 X127.838 Y62.789 E3.10734
G1 X122.703 Y62.789 E3.57426
G1 X122.703 Y57.448 E4.05991
G1 X94.311 Y57.448 E6.64158
G1 X94.311 Y62.789 E7.12723
G1 X72.162 Y62.789 E9.14123
G1 X72.162 Y59.783 E9.41456
G1 X68.29 Y59.783 E9.76664
G1 X68.29 Y62.783 E10.03943
G1 X65.99 Y62.783 E10.24857
G1 X65.99 Y37.634 E12.53536
G1 X134.01 Y37.634 E18.72039
G1 X134.01 Y62.69 E20.99872
G1 X134.01 Y62.69 F7800
G1 X133.327 Y62.502
G1 F1800
G1 X133.327 Y38.197 E23.20876
G1 X132.633 Y38.197 E23.27187
G1 X132.633 Y62.221 E25.45636
G1 X132.272 Y62.221 E25.48919
G1 X132.272 Y59.221 E25.76198
G1 X131.939 Y59.221 E25.79226
G1 X131.939 Y38.197 E27.70396
G1 X131.244 Y38.197 E27.76716
G1 X131.244 Y59.221 E29.67886
G1 X130.55 Y59.221 E29.74197
G1 X130.55 Y38.197 E31.65367
G1 X129.856 Y38.197 E31.71678
G1 X129.856 Y59.221 E33.62848
G1 X129.161 Y59.221 E33.69168
G1 X129.161 Y38.197 E35.60338
G1 X128.467 Y38.197 E35.66649
G1 X128.467 Y59.221 E37.57819
G1 X127.773 Y59.221 E37.6413
G1 X127.773 Y38.197 E39.553
G1 X127.079 Y38.197 E39.61611
G1 X127.079 Y62.227 E41.80115
G1 X126.384 Y62.227 E41.86435
G1 X126.384 Y38.197 E44.04939
G1 X125.69 Y38.197 E44.1125
G1 X125.69 Y62.227 E46.29754
G1 X124.996 Y62.227 E46.36065
G1 X124.996 Y38.197 E48.54569
G1 X124.301 Y38.197 E48.60889
G1 X124.301 Y62.227 E50.79393
G1 X123.607 Y62.227 E50.85704
G1 X123.607 Y38.197 E53.04208
G1 X122.913 Y38.197 E53.10519
G1 X122.913 Y56.885 E54.80448
G1 X122.218 Y56.885 E54.86768
G1 X122.218 Y38.197 E56.56697
G1 X121.524 Y38.197 E56.63008
G1 X121.524 Y56.885 E58.32937
G1 X120.83 Y56.885 E58.39248
G1 X120.83 Y38.197 E60.09177
G1 X120.135 Y38.197 E60.15497
G1 X120.135 Y56.885 E61.85426
G1 X119.441 Y56.885 E61.91737
G1 X119.441 Y38.197 E63.61666
G1 X118.747 Y38.197 E63.67977
G1 X118.747 Y56.885 E65.37906
G1 X118.052 Y56.885 E65.44226
G1 X118.052 Y38.197 E67.14155
G1 X117.358 Y38.197 E67.20466
G1 X117.358 Y56.885 E68.90395
G1 X116.664 Y56.885 E68.96706
G1 X116.664 Y38.197 E70.66635
G1 X115.969 Y38.197 E70.72955
G1 X115.969 Y56.885 E72.42884
G1 X115.275 Y56.885 E72.49195
G1 X115.275 Y38.197 E74.19124
G1 X114.581 Y38.197 E74.25435
G1 X114.581 Y56.885 E75.95364
G1 X113.886 Y56.885 E76.01684
G1 X113.886 Y38.197 E77.71613
G1 X113.192 Y38.197 E77.77924
G1 X113.192 Y56.885 E79.47853
G1 X112.498 Y56.885 E79.54164
G1 X112.498 Y38.197 E81.24093
G1 X111.803 Y38.197 E81.30413
G1 X111.803 Y56.885 E83.00342
G1 X111.109 Y56.885 E83.06653
G1 X111.109 Y38.197 E84.76582
G1 X110.415 Y38.197 E84.82893
G1 X110.415 Y56.885 E86.52822
G1 X109.72 Y56.885 E86.59142
G1 X109.72 Y38.197 E88.29071
G1 X109.026 Y38.197 E88.35382
G1 X109.026 Y56.885 E90.05311
G1 X108.332 Y56.885 E90.11622
G1 X108.332 Y38.197 E91.81551
G1 X107.638 Y38.197 E91.87862
G1 X107.638 Y56.885 E93.57791
G1 X106.943 Y56.885 E93.64111
G1 X106.943 Y38.197 E95.3404
G1 X106.249 Y38.197 E95.40351
G1 X106.249 Y56.885 E97.1028
G1 X105.555 Y56.885 E97.16591
G1 X105.555 Y38.197 E98.8652
G1 X104.86 Y38.197 E98.9284
G1 X104.86 Y56.885 E100.62769
G1 X104.166 Y56.885 E100.6908
G1 X104.166 Y38.197 E102.39009
G1 X103.472 Y38.197 E102.4532
G1 X103.472 Y56.885 E104.15249
G1 X102.777 Y56.885 E104.21569
G1 X102.777 Y38.197 E105.91498
G1 X102.083 Y38.197 E105.97809
G1 X102.083 Y56.885 E107.67738
G1 X101.389 Y56.885 E107.74049
G1 X101.389 Y38.197 E109.43978
G1 X100.694 Y38.197 E109.50298
G1 X100.694 Y56.885 E111.20227
G1 X100 Y56.885 E111.26538
G1 X100 Y38.197 E112.96467
G1 X99.306 Y38.197 E113.02778
G1 X99.306 Y56.885 E114.72707
G1 X98.611 Y56.885 E114.79027
G1 X98.611 Y38.197 E116.48956
G1 X97.917 Y38.197 E116.55267
G1 X97.917 Y56.885 E118.25196
G1 X97.223 Y56.885 E118.31507
G1 X97.223 Y38.197 E120.01436
G1 X96.528 Y38.197 E120.07756
G1 X96.528 Y56.885 E121.77685
G1 X95.834 Y56.885 E121.83996
G1 X95.834 Y38.197 E123.53925
G1 X95.14 Y38.197 E123.60236
G1 X95.14 Y56.885 E125.30165
G1 X94.445 Y56.885 E125.36485
G1 X94.445 Y38.197 E127.06414
G1 X93.751 Y38.197 E127.12725
G1 X93.748 Y62.227 E129.31229
G1 X93.057 Y62.227 E129.37512
G1 X93.057 Y38.197 E131.56016
G1 X92.362 Y38.197 E131.62336
G1 X92.362 Y62.227 E133.8084
G1 X91.668 Y62.227 E133.87151
G1 X91.668 Y38.197 E136.05655
G1 X90.974 Y38.197 E136.11966
G1 X90.974 Y62.227 E138.3047
G1 X90.28 Y62.227 E138.36781
G1 X90.28 Y38.197 E140.55285
G1 X89.585 Y38.197 E140.61605
G1 X89.585 Y62.227 E142.80109
G1 X88.891 Y62.227 E142.8642
G1 X88.891 Y38.197 E145.04924
G1 X88.197 Y38.197 E145.11235
G1 X88.197 Y62.227 E147.29739
G1 X87.502 Y62.227 E147.36059
G1 X87.502 Y38.197 E149.54563
G1 X86.808 Y38.197 E149.60874
G1 X86.808 Y62.227 E151.79378
G1 X86.114 Y62.227 E151.85689
G1 X86.114 Y38.197 E154.04193
G1 X85.419 Y38.197 E154.10513
G1 X85.419 Y62.227 E156.29017
G1 X84.725 Y62.227 E156.35328
G1 X84.725 Y38.197 E158.53832
G1 X84.031 Y38.197 E158.60143
G1 X84.031 Y62.227 E160.78647
G1 X83.336 Y62.227 E160.84967
G1 X83.336 Y38.197 E163.03471
G1 X82.642 Y38.197 E163.09782
G1 X82.642 Y62.227 E165.28286
G1 X81.948 Y62.227 E165.34597
G1 X81.948 Y38.197 E167.53101
G1 X81.253 Y38.197 E167.59421
G1 X81.253 Y62.227 E169.77925
G1 X80.559 Y62.227 E169.84236
G1 X80.559 Y38.197 E172.0274
G1 X79.865 Y38.197 E172.09051
G1 X79.865 Y62.227 E174.27555
G1 X79.17 Y62.227 E174.33875
G1 X79.17 Y38.197 E176.52379
G1 X78.476 Y38.197 E176.5869
G1 X78.476 Y62.227 E178.77194
G1 X77.782 Y62.227 E178.83505
G1 X77.782 Y38.197 E181.02009
G1 X77.087 Y38.197 E181.08329
G1 X77.087 Y62.227 E183.26833
G1 X76.393 Y62.227 E183.33144
G1 X76.393 Y38.197 E185.51648
G1 X75.699 Y38.197 E185.57959
G1 X75.699 Y62.227 E187.76463
G1 X75.004 Y62.227 E187.82783
G1 X75.004 Y38.197 E190.01287
G1 X74.31 Y38.197 E190.07598
G1 X74.31 Y62.227 E192.26102
G1 X73.616 Y62.227 E192.32413
G1 X73.616 Y38.197 E194.50917
G1 X72.921 Y38.197 E194.57237
G1 X72.921 Y62.227 E196.75741
G1 X72.724 Y62.227 E196.77532
G1 X72.724 Y59.221 E197.04865
G1 X72.227 Y59.221 E197.09384
G1 X72.227 Y38.197 E199.00554
G1 X71.533 Y38.197 E199.06865
G1 X71.533 Y59.221 E200.98035
G1 X70.839 Y59.221 E201.04346
G1 X70.839 Y38.197 E202.95516
G1 X70.144 Y38.197 E203.01836
G1 X70.144 Y59.221 E204.93006
G1 X69.45 Y59.221 E204.99317
G1 X69.45 Y38.197 E206.90487
G1 X68.756 Y38.197 E206.96798
G1 X68.756 Y59.221 E208.87968
G1 X68.061 Y59.221 E208.94288
G1 X68.061 Y38.197 E210.85458
G1 X67.367 Y38.197 E210.91769
G1 X67.367 Y62.221 E213.10218
G1 X66.673 Y62.221 E213.16529
G1 X66.673 Y37.915 E215.37542
G1 E213.37542 F2400
G92 E0
G1 X66.673 Y37.915 F7800
G1 X68.955 Y60.15
G1 E2 F2400
;TYPE:Support material interface
;WIDTH:0.4
G1 F1800
G1 X68.955 Y65.973 E2.27529
G1 X69.291 Y65.973 E2.29117
G1 X69.291 Y60.301 E2.55932
G1 X69.626 Y60.301 E2.57516
G1 X69.626 Y63 E2.70276
G1 X69.806 Y62.82 E2.71479
G1 X69.962 Y62.82 E2.72217
G1 X69.962 Y60.301 E2.84126
G1 X70.298 Y60.301 E2.85714
G1 X70.298 Y62.82 E2.97623
G1 X70.633 Y62.82 E2.99207
G1 X70.633 Y60.301 E3.11116
G1 X70.969 Y60.301 E3.12704
G1 X70.969 Y62.82 E3.24613
G1 X71.305 Y62.82 E3.26201
G1 X71.305 Y60.301 E3.3811
G1 X71.64 Y60.301 E3.39694
G1 X71.64 Y62.971 E3.52317
G1 E1.52317 F2400
G92 E0
G1 X71.64 Y62.971 F7800
G1 X128.604 Y147.856
G1 E2 F2400
;TYPE:Perimeter
;WIDTH:0.7
G1 F1800
G1 X128.421 Y148.081 E2.02637
G1 X128.258 Y148.467 E2.06447
G1 X128.204 Y148.874 E2.1018
G1 X128.197 Y154.264 E2.59191
G1 X128.133 Y154.658 E2.62821
G1 X127.949 Y154.923 E2.65755
G1 X127.688 Y155.09 E2.68572
G1 X127.392 Y155.153 E2.71324
G1 X103.24 Y155.164 E4.90937
G1 X102.791 Y155.286 E4.95168
G1 X102.387 Y155.543 E4.99522
G1 X101.947 Y156.013 E5.05376
G1 X101.481 Y156.375 E5.10742
G1 X100.928 Y156.641 E5.16322
G1 X100.485 Y156.756 E5.20484
G1 X99.861 Y156.795 E5.26169
G1 X99.244 Y156.694 E5.31854
G1 X98.664 Y156.459 E5.37544
G1 X98.152 Y156.101 E5.43225
G1 X97.737 Y155.666 E5.48692
G1 X97.412 Y155.393 E5.52551
G1 X97.048 Y155.225 E5.56196
G1 X96.58 Y155.154 E5.605
G1 X72.628 Y155.153 E7.78294
G1 X72.279 Y155.079 E7.81538
G1 X72.004 Y154.877 E7.84641
G1 X71.846 Y154.604 E7.87509
G1 X71.796 Y154.3 E7.9031
G1 X71.796 Y148.876 E8.3963
G1 X71.742 Y148.468 E8.43372
G1 X71.579 Y148.081 E8.4719
G1 X71.285 Y147.72 E8.51423
G1 X70.146 Y146.685 E8.65417
G1 X70.146 Y141.015 E9.16974
G1 X71.285 Y139.98 E9.30968
G1 X71.541 Y139.681 E9.34547
G1 X71.732 Y139.268 E9.38685
G1 X71.796 Y138.824 E9.42764
G1 X71.796 Y88.876 E13.96939
G1 X71.748 Y88.492 E14.00458
G1 X71.577 Y88.077 E14.04539
G1 X71.285 Y87.72 E14.08733
G1 X70.146 Y86.685 E14.22727
G1 X70.146 Y81.015 E14.74284
G1 X71.285 Y79.98 E14.88278
G1 X71.539 Y79.683 E14.91832
G1 X71.723 Y79.299 E14.95704
G1 X71.796 Y78.824 E15.00074
G1 X71.796 Y64.964 E16.26102
G1 X128.204 Y64.964 E21.39017
G1 X128.204 Y78.824 E22.65045
G1 X128.252 Y79.208 E22.68564
G1 X128.423 Y79.623 E22.72645
G1 X128.715 Y79.98 E22.76839
G1 X129.854 Y81.015 E22.90833
G1 X129.854 Y86.685 E23.4239
G1 X128.715 Y87.72 E23.56384
G1 X128.461 Y88.017 E23.59938
G1 X128.277 Y88.401 E23.6381
G1 X128.204 Y88.876 E23.6818
G1 X128.204 Y138.824 E28.22355
G1 X128.247 Y139.188 E28.25688
G1 X128.421 Y139.619 E28.29914
G1 X128.715 Y139.98 E28.34147
G1 X129.854 Y141.015 E28.48141
G1 X129.854 Y142.554 E28.62135
G1 X129.854 Y146.685 E28.99698
G1 X128.715 Y147.72 E29.13692
G1 X128.642 Y147.81 E29.14746
G1 X128.642 Y147.81 F7800
G1 X129.111 Y148.207
G1 F1800
G1 X129.062 Y148.257 E29.15383
G1 X128.903 Y148.51 E29.181
G1 X128.829 Y148.875 E29.21486
G1 X128.822 Y154.424 E29.71943
G1 X128.664 Y155.005 E29.77418
G1 X128.302 Y155.443 E29.82585
G1 X127.917 Y155.675 E29.86672
G1 X127.42 Y155.778 E29.91287
G1 X103.364 Y155.78 E32.10027
G1 X103.008 Y155.874 E32.13375
G1 X102.726 Y156.086 E32.16583
G1 X102.261 Y156.57 E32.22686
G1 X101.798 Y156.916 E32.27942
G1 X101.371 Y157.121 E32.32249
G1 X100.758 Y157.342 E32.38174
G1 X100.199 Y157.414 E32.43299
G1 X99.665 Y157.411 E32.48155
G1 X99.075 Y157.295 E32.53623
G1 X98.511 Y157.087 E32.59089
G1 X98.002 Y156.776 E32.64513
G1 X97.613 Y156.459 E32.69076
G1 X97.2 Y156.012 E32.7461
G1 X96.928 Y155.845 E32.77512
G1 X96.58 Y155.778 E32.80734
G1 X72.592 Y155.778 E34.98856
G1 X72.113 Y155.69 E35.03284
G1 X71.75 Y155.494 E35.07035
G1 X71.45 Y155.178 E35.10997
G1 X71.251 Y154.805 E35.14841
G1 X71.171 Y154.319 E35.1932
G1 X71.167 Y148.785 E35.6964
G1 X71.087 Y148.486 E35.72454
G1 X70.865 Y148.182 E35.75877
G1 X69.521 Y146.961 E35.92388
G1 X69.521 Y140.739 E36.48964
G1 X70.938 Y139.443 E36.66425
G1 X71.097 Y139.19 E36.69142
G1 X71.171 Y138.824 E36.72537
G1 X71.171 Y88.846 E41.26985
G1 X71.085 Y88.483 E41.30377
G1 X70.865 Y88.182 E41.33767
G1 X69.521 Y86.961 E41.50278
G1 X69.521 Y80.739 E42.06854
G1 X70.938 Y79.443 E42.24315
G1 X71.104 Y79.174 E42.27189
G1 X71.171 Y78.824 E42.30429
G1 X71.171 Y64.339 E43.6214
G1 X128.828 Y64.339 E48.86412
G1 X128.83 Y78.876 E50.18596
G1 X128.915 Y79.217 E50.21792
G1 X129.135 Y79.518 E50.25182
G1 X130.478 Y80.739 E50.41686
G1 X130.478 Y86.961 E50.98262
G1 X129.062 Y88.257 E51.15716
G1 X128.896 Y88.526 E51.1859
G1 X128.828 Y88.876 E51.21832
G1 X128.828 Y138.824 E55.76007
G1 X128.913 Y139.214 E55.79637
G1 X129.135 Y139.518 E55.8306
G1 X130.478 Y140.739 E55.99564
G1 X130.478 Y142.554 E56.16068
G1 X130.478 Y146.961 E56.56141
G1 X129.154 Y148.165 E56.72414
G1 X129.154 Y148.165 F7800
G1 X129.681 Y148.531
;TYPE:External perimeter
G1 F1800
G1 X129.556 Y148.645 E56.73952
G1 X129.514 Y148.691 E56.74518
G1 X129.453 Y148.875 E56.76281
G1 X129.447 Y154.491 E57.27347
G1 X129.355 Y154.92 E57.31337
G1 X129.207 Y155.322 E57.35232
G1 X128.867 Y155.784 E57.40448
G1 X128.557 Y156.044 E57.44127
G1 X128.147 Y156.261 E57.48345
G1 X127.93 Y156.319 E57.50387
G1 X127.447 Y156.403 E57.54845
G1 X103.42 Y156.403 E59.73321
G1 X103.377 Y156.406 E59.73713
G1 X103.188 Y156.506 E59.75657
G1 X102.674 Y157.039 E59.8239
G1 X102.114 Y157.457 E59.88744
G1 X101.378 Y157.811 E59.9617
G1 X100.701 Y157.987 E60.02531
G1 X100.197 Y158.041 E60.0714
G1 X99.599 Y158.033 E60.12578
G1 X99.101 Y157.952 E60.17166
G1 X98.523 Y157.766 E60.22687
G1 X98.068 Y157.557 E60.2724
G1 X97.645 Y157.289 E60.31793
G1 X97.174 Y156.905 E60.37319
G1 X96.765 Y156.464 E60.42788
G1 X96.58 Y156.403 E60.44559
G1 X72.677 Y156.403 E62.61908
G1 X72.192 Y156.361 E62.66335
G1 X71.619 Y156.153 E62.71878
G1 X71.246 Y155.878 E62.76092
G1 X70.943 Y155.543 E62.80199
G1 X70.74 Y155.191 E62.83894
G1 X70.61 Y154.806 E62.87589
G1 X70.547 Y154.339 E62.91874
G1 X70.541 Y148.818 E63.42076
G1 X70.444 Y148.645 E63.43879
G1 X68.897 Y147.238 E63.62894
G1 X68.897 Y140.462 E64.24508
G1 X70.444 Y139.055 E64.43523
G1 X70.486 Y139.009 E64.44089
G1 X70.547 Y138.824 E64.4586
G1 X70.547 Y88.876 E69.00035
G1 X70.542 Y88.822 E69.00528
G1 X70.444 Y88.645 E69.02368
G1 X68.897 Y87.238 E69.21383
G1 X68.897 Y80.462 E69.82997
G1 X70.444 Y79.055 E70.02012
G1 X70.486 Y79.009 E70.02578
G1 X70.547 Y78.824 E70.04349
G1 X70.547 Y63.714 E71.41744
G1 X129.453 Y63.714 E76.77373
G1 X129.457 Y78.873 E78.15213
G1 X129.556 Y79.055 E78.17097
G1 X131.103 Y80.462 E78.36112
G1 X131.103 Y87.238 E78.97726
G1 X129.556 Y88.645 E79.16741
G1 X129.514 Y88.691 E79.17307
G1 X129.453 Y88.876 E79.19078
G1 X129.453 Y138.824 E83.73253
G1 X129.459 Y138.881 E83.73774
G1 X129.556 Y139.055 E83.75585
G1 X131.103 Y140.462 E83.946
G1 X131.103 Y142.554 E84.13622
G1 X131.103 Y147.238 E84.56213
G1 X129.725 Y148.49 E84.73142
G1 X129.489 Y148.813 F7800
G1 E82.73142 F2400
G92 E0
G1 X126.747 Y65.151 F7800
G1 E2 F2400
