; generated by PrusaSlicer 2.4.0 on 2025-06-15 at 04:46:06 UTC

; 

; external perimeters extrusion width = 0.45mm
; perimeters extrusion width = 0.45mm
; infill extrusion width = 0.45mm
; solid infill extrusion width = 0.45mm
; top infill extrusion width = 0.40mm
; first layer extrusion width = 0.70mm

M107
M104 S200 ; set temperature
;TYPE:Custom
G28 ; home all axes
G1 Z5 F5000 ; lift nozzle
M109 S200 ; set temperature and wait for it to be reached
G21 ; set units to millimeters
G90 ; use absolute coordinates
M82 ; use absolute distances for extrusion
G92 E0
; Filament gcode
M107
;LAYER_CHANGE
;Z:0.35
;HEIGHT:0.35
G1 Z.35 F7800
G1 E-2 F2400
G92 E0
G1 X65.548 Y58.644 F7800
G1 E2 F2400
;TYPE:Skirt/Brim
;WIDTH:0.7
G1 F1800
G1 X67.435 Y57.342 E2.20854
G1 X70.197 Y56.739 E2.46553
G1 X129.803 Y56.739 E7.88554
G1 X132.062 Y57.136 E8.09409
G1 X134.05 Y58.28 E8.30263
G1 X135.529 Y60.032 E8.51117
G1 X136.397 Y62.722 E8.76815
G1 X138.078 Y80.308 E10.3745
G1 X138.078 Y147.392 E16.47449
G1 X137.912 Y148.867 E16.6094
G1 X136.128 Y156.657 E17.33613
G1 X135.687 Y157.931 E17.45872
G1 X135.061 Y159.127 E17.58143
G1 X133.924 Y160.59 E17.74995
G1 X133.265 Y161.213 E17.83238
G1 X132.417 Y161.856 E17.92916
G1 X130.778 Y162.722 E18.09769
G1 X129.928 Y163.017 E18.17955
G1 X128.895 Y163.253 E18.2759
G1 X100.466 Y165.018 E20.86588
G1 X99.382 Y165.011 E20.96449
G1 X71.791 Y163.342 E23.47787
G1 X70.729 Y163.182 E23.57557
G1 X69.659 Y162.886 E23.67652
G1 X68.768 Y162.525 E23.76393
G1 X67.824 Y162.011 E23.86166
G1 X66.735 Y161.214 E23.98436
G1 X65.738 Y160.216 E24.11265
G1 X64.853 Y158.986 E24.25045
G1 X64.228 Y157.728 E24.37821
G1 X63.831 Y156.498 E24.49572
G1 X62.088 Y148.867 E25.20747
G1 X61.922 Y147.392 E25.34238
G1 X61.922 Y80.308 E31.44237
G1 X63.603 Y62.722 E33.04871
G1 X64.217 Y60.512 E33.25726
G1 X65.513 Y58.693 E33.46034
G1 E31.46034 F2400
G92 E0
G1 X71.796 Y64.964 F7800
G1 E2 F2400
;TYPE:Perimeter
G1 F1800
G1 X128.204 Y64.964 E7.12909
G1 X128.204 Y79.515 E8.45224
G1 X129.854 Y81.015 E8.65501
G1 X129.854 Y86.685 E9.17052
G1 X128.204 Y88.185 E9.37329
G1 X128.204 Y139.515 E14.04076
G1 X129.854 Y141.015 E14.24353
G1 X129.854 Y146.685 E14.75904
G1 X128.204 Y148.184 E14.9617
G1 X128.197 Y154.417 E15.52843
G1 X128.151 Y154.623 E15.54768
G1 X128.102 Y154.732 E15.55853
G1 X127.968 Y154.914 E15.57909
G1 X127.859 Y155.007 E15.59212
G1 X127.759 Y155.066 E15.60274
G1 X127.588 Y155.129 E15.61923
G1 X127.392 Y155.153 E15.63716
G1 X102.728 Y155.154 E17.87989
G1 X101.947 Y156.013 E17.98548
G1 X101.749 Y156.188 E18.00955
G1 X101.449 Y156.397 E18.04273
G1 X101.222 Y156.521 E18.0663
G1 X100.884 Y156.658 E18.09948
G1 X100.629 Y156.73 E18.12354
G1 X100.269 Y156.788 E18.15673
G1 X100 Y156.802 E18.18118
G1 X99.731 Y156.788 E18.20563
G1 X99.371 Y156.73 E18.23882
G1 X99.116 Y156.658 E18.26288
G1 X98.778 Y156.521 E18.29606
G1 X98.551 Y156.397 E18.31963
G1 X98.251 Y156.188 E18.35281
G1 X98.053 Y156.013 E18.37689
G1 X97.272 Y155.154 E18.48247
G1 X72.628 Y155.153 E20.72338
G1 X72.433 Y155.131 E20.74122
G1 X72.218 Y155.052 E20.762
G1 X72.004 Y154.877 E20.78716
G1 X71.911 Y154.748 E20.80156
G1 X71.846 Y154.604 E20.81595
G1 X71.796 Y154.3 E20.84401
G1 X71.796 Y148.185 E21.40003
G1 X70.146 Y146.685 E21.6028
G1 X70.146 Y141.015 E22.11831
G1 X71.796 Y139.515 E22.32108
G1 X71.796 Y88.185 E26.98855
G1 X70.146 Y86.685 E27.19132
G1 X70.146 Y81.015 E27.70683
G1 X71.796 Y79.515 E27.90959
G1 X71.796 Y65.024 E29.2273
G1 X71.171 Y65.024 F7800
G1 F1800
G1 X71.171 Y64.339 E29.28957
G1 X128.828 Y64.339 E34.5323
G1 X128.828 Y79.239 E35.88714
G1 X130.479 Y80.739 E36.08991
G1 X130.479 Y86.961 E36.65569
G1 X128.828 Y88.461 E36.85846
G1 X128.828 Y139.239 E41.47566
G1 X130.479 Y140.739 E41.67842
G1 X130.479 Y146.961 E42.24421
G1 X128.829 Y148.461 E42.44691
G1 X128.822 Y154.46 E42.99239
G1 X128.799 Y154.627 E43.00773
G1 X128.74 Y154.837 E43.02762
G1 X128.652 Y155.031 E43.04698
G1 X128.534 Y155.216 E43.06692
G1 X128.42 Y155.348 E43.08282
G1 X128.208 Y155.526 E43.10794
G1 X128.047 Y155.622 E43.12494
G1 X127.746 Y155.734 E43.15419
G1 X127.42 Y155.778 E43.18412
G1 X103.005 Y155.779 E45.40418
G1 X102.387 Y156.459 E45.4878
G1 X102.135 Y156.681 E45.51825
G1 X101.778 Y156.929 E45.5578
G1 X101.489 Y157.087 E45.58772
G1 X101.086 Y157.25 E45.62727
G1 X100.764 Y157.341 E45.65772
G1 X100.335 Y157.411 E45.69727
G1 X100 Y157.427 E45.72773
G1 X99.665 Y157.411 E45.75819
G1 X99.236 Y157.341 E45.79775
G1 X98.914 Y157.25 E45.82819
G1 X98.511 Y157.087 E45.86774
G1 X98.222 Y156.929 E45.89766
G1 X97.865 Y156.681 E45.93721
G1 X97.613 Y156.459 E45.96766
G1 X96.995 Y155.779 E46.05129
G1 X72.592 Y155.778 E48.27024
G1 X72.312 Y155.746 E48.29588
G1 X72.113 Y155.69 E48.31471
G1 X71.919 Y155.602 E48.33407
G1 X71.75 Y155.494 E48.35232
G1 X71.533 Y155.293 E48.3792
G1 X71.368 Y155.063 E48.40496
G1 X71.251 Y154.805 E48.43071
G1 X71.184 Y154.511 E48.45812
G1 X71.171 Y154.319 E48.47558
G1 X71.171 Y148.461 E49.00826
G1 X69.521 Y146.961 E49.21102
G1 X69.521 Y140.739 E49.77681
G1 X71.171 Y139.239 E49.97957
G1 X71.171 Y88.461 E54.59678
G1 X69.521 Y86.961 E54.79954
G1 X69.521 Y80.739 E55.36532
G1 X71.171 Y79.239 E55.56809
G1 X71.171 Y65.084 E56.8552
G1 X70.547 Y63.714 F7800
;TYPE:External perimeter
G1 F1800
G1 X129.453 Y63.714 E62.21157
G1 X129.453 Y78.962 E63.5981
G1 X131.103 Y80.462 E63.80086
G1 X131.103 Y87.238 E64.41692
G1 X129.453 Y88.738 E64.61968
G1 X129.453 Y138.962 E69.18661
G1 X131.103 Y140.462 E69.38938
G1 X131.103 Y147.238 E70.00544
G1 X129.454 Y148.737 E70.20818
G1 X129.447 Y154.503 E70.73241
G1 X129.412 Y154.754 E70.75552
G1 X129.329 Y155.051 E70.78358
G1 X129.203 Y155.331 E70.81145
G1 X129.035 Y155.59 E70.83953
G1 X128.871 Y155.782 E70.86251
G1 X128.557 Y156.045 E70.89973
G1 X128.336 Y156.177 E70.92311
G1 X128.149 Y156.261 E70.94181
G1 X127.904 Y156.34 E70.96518
G1 X127.708 Y156.38 E70.98339
G1 X127.447 Y156.403 E71.00717
G1 X103.281 Y156.403 E73.20457
G1 X102.826 Y156.905 E73.26623
G1 X102.521 Y157.173 E73.30306
G1 X102.107 Y157.462 E73.34898
G1 X101.757 Y157.652 E73.38525
G1 X101.289 Y157.842 E73.43116
G1 X100.899 Y157.952 E73.468
G1 X100.401 Y158.033 E73.51392
G1 X100 Y158.053 E73.55038
G1 X99.599 Y158.033 E73.58685
G1 X99.101 Y157.952 E73.63277
G1 X98.711 Y157.842 E73.6696
G1 X98.243 Y157.652 E73.71552
G1 X97.893 Y157.462 E73.75179
G1 X97.479 Y157.173 E73.7977
G1 X97.174 Y156.905 E73.83454
G1 X96.719 Y156.403 E73.89619
G1 X72.557 Y156.403 E76.0932
G1 X72.192 Y156.361 E76.12663
G1 X71.899 Y156.279 E76.15432
G1 X71.619 Y156.153 E76.18219
G1 X71.365 Y155.989 E76.20966
G1 X71.063 Y155.709 E76.24718
G1 X70.824 Y155.377 E76.2843
G1 X70.656 Y155.005 E76.32143
G1 X70.563 Y154.601 E76.35914
G1 X70.547 Y154.339 E76.38301
G1 X70.547 Y148.738 E76.89235
G1 X68.897 Y147.238 E77.09511
G1 X68.897 Y140.462 E77.71117
G1 X70.547 Y138.962 E77.91393
G1 X70.547 Y88.738 E82.48086
G1 X68.897 Y87.238 E82.68363
G1 X68.897 Y80.462 E83.29968
G1 X70.547 Y78.962 E83.50245
G1 X70.547 Y63.774 E84.88352
G1 X70.886 Y63.925 F7800
G1 E82.88352 F2400
G92 E0
G1 X126.747 Y65.151 F7800
G1 E2 F2400
;TYPE:Solid infill
;WIDTH:0.702792
G1 F1800
G1 X127.735 Y66.139 E2.1276
G1 X127.735 Y67.027 E2.20868
G1 X126.141 Y65.433 E2.41462
G1 X125.253 Y65.433 E2.4957
G1 X127.735 Y67.915 E2.8163
G1 X127.735 Y68.802 E2.89738
G1 X124.365 Y65.433 E3.33264
G1 X123.478 Y65.433 E3.41372
G1 X127.735 Y69.69 E3.96364
G1 X127.735 Y70.578 E4.04471
G1 X122.59 Y65.433 E4.70929
G1 X121.702 Y65.433 E4.79037
G1 X127.735 Y71.465 E5.56961
G1 X127.735 Y72.353 E5.65069
G1 X120.815 Y65.433 E6.54458
G1 X119.927 Y65.433 E6.62566
G1 X127.735 Y73.241 E7.63422
G1 X127.735 Y74.128 E7.7153
G1 X119.039 Y65.433 E8.83851
G1 X118.152 Y65.433 E8.91959
G1 X127.735 Y75.016 E10.15747
G1 X127.735 Y75.904 E10.23854
G1 X117.264 Y65.433 E11.59108
G1 X116.376 Y65.433 E11.67216
G1 X127.735 Y76.791 E13.13935
G1 X127.735 Y77.679 E13.22043
G1 X115.488 Y65.433 E14.80229
G1 X114.601 Y65.433 E14.88336
G1 X127.735 Y78.567 E16.57988
G1 X127.735 Y79.454 E16.66095
G1 X113.713 Y65.433 E18.47213
G1 X112.825 Y65.433 E18.55321
G1 X129.385 Y81.992 E20.69217
G1 X129.385 Y82.88 E20.77325
G1 X111.938 Y65.433 E23.02687
G1 X111.05 Y65.433 E23.10794
G1 X129.385 Y83.767 E25.47623
G1 X129.385 Y84.655 E25.5573
G1 X110.162 Y65.433 E28.04025
G1 X109.275 Y65.433 E28.12132
G1 X129.385 Y85.543 E30.71892
G1 X129.385 Y86.43 E30.8
G1 X108.387 Y65.433 E33.51226
G1 X107.499 Y65.433 E33.59334
G1 X128.945 Y86.878 E36.36337
G1 X128.48 Y87.3 E36.42077
G1 X106.612 Y65.433 E39.24541
G1 X105.724 Y65.433 E39.32648
G1 X128.015 Y87.723 E42.20572
G1 X127.735 Y87.977 E42.24025
G1 X127.735 Y88.331 E42.27255
G1 X104.836 Y65.433 E45.23032
G1 X103.949 Y65.433 E45.3114
G1 X127.735 Y89.219 E48.38383
G1 X127.735 Y90.106 E48.4649
G1 X103.061 Y65.433 E51.65199
G1 X102.173 Y65.433 E51.73307
G1 X127.735 Y90.994 E55.03482
G1 X127.735 Y91.882 E55.1159
G1 X101.286 Y65.433 E58.5323
G1 X100.398 Y65.433 E58.61338
G1 X127.735 Y92.769 E62.14445
G1 X127.735 Y93.657 E62.22552
G1 X99.51 Y65.433 E65.87125
G1 X98.623 Y65.433 E65.95233
G1 X127.735 Y94.545 E69.71271
G1 X127.735 Y95.432 E69.79379
G1 X97.735 Y65.433 E73.66883
G1 X96.847 Y65.433 E73.74991
G1 X127.735 Y96.32 E77.73962
G1 X127.735 Y97.208 E77.82069
G1 X95.96 Y65.433 E81.92506
G1 X95.072 Y65.433 E82.00613
G1 X127.735 Y98.096 E86.22516
G1 X127.735 Y98.983 E86.30624
G1 X94.184 Y65.433 E90.63992
G1 X93.297 Y65.433 E90.721
G1 X127.735 Y99.871 E95.16934
G1 X127.735 Y100.759 E95.25042
G1 X92.409 Y65.433 E99.81342
G1 X91.521 Y65.433 E99.89449
G1 X127.735 Y101.646 E104.57216
G1 X127.735 Y102.534 E104.65323
G1 X90.634 Y65.433 E109.44555
G1 X89.746 Y65.433 E109.52663
G1 X127.735 Y103.422 E114.43361
G1 X127.735 Y104.309 E114.51469
G1 X88.858 Y65.433 E119.53633
G1 X87.971 Y65.433 E119.61741
G1 X127.735 Y105.197 E124.75371
G1 X127.735 Y106.085 E124.83478
G1 X87.083 Y65.433 E130.08574
G1 X86.195 Y65.433 E130.16682
G1 X127.735 Y106.972 E135.53244
G1 X127.735 Y107.86 E135.61351
G1 X85.308 Y65.433 E141.09379
G1 X84.42 Y65.433 E141.17487
G1 X127.735 Y108.748 E146.76981
G1 X127.735 Y109.635 E146.85088
G1 X83.532 Y65.433 E152.56048
G1 X82.645 Y65.433 E152.64156
G1 X127.735 Y110.523 E158.46582
G1 X127.735 Y111.411 E158.54689
G1 X81.757 Y65.433 E164.48581
G1 X80.869 Y65.433 E164.56689
G1 X127.735 Y112.298 E170.62046
G1 X127.735 Y113.186 E170.70154
G1 X79.981 Y65.433 E176.86977
G1 X79.094 Y65.433 E176.95085
G1 X127.735 Y114.074 E183.23375
G1 X127.735 Y114.961 E183.31482
G1 X78.206 Y65.433 E189.71238
G1 X77.318 Y65.433 E189.79345
G1 X127.735 Y115.849 E196.30567
G1 X127.735 Y116.737 E196.38674
G1 X76.431 Y65.433 E203.01362
G1 X75.543 Y65.433 E203.09469
G1 X127.735 Y117.624 E209.83623
G1 X127.735 Y118.512 E209.9173
G1 X74.655 Y65.433 E216.7735
G1 X73.768 Y65.433 E216.85457
G1 X127.735 Y119.4 E223.82542
G1 X127.735 Y120.287 E223.9065
G1 X72.88 Y65.433 E230.99201
G1 X72.265 Y65.433 E231.04819
G1 X72.265 Y65.705 E231.07309
G1 X127.735 Y121.175 E238.23804
G1 X127.735 Y122.063 E238.31912
G1 X72.265 Y66.593 E245.48408
G1 X72.265 Y67.48 E245.56515
G1 X127.735 Y122.95 E252.73011
G1 X127.735 Y123.838 E252.81119
G1 X72.265 Y68.368 E259.97614
G1 X72.265 Y69.256 E260.05722
G1 X127.735 Y124.726 E267.22217
G1 X127.735 Y125.613 E267.30325
G1 X72.265 Y70.144 E274.46821
G1 X72.265 Y71.031 E274.54928
G1 X127.735 Y126.501 E281.71424
G1 X127.735 Y127.389 E281.79531
G1 X72.265 Y71.919 E288.96027
G1 X72.265 Y72.807 E289.04135
G1 X127.735 Y128.276 E296.2063
G1 X127.735 Y129.164 E296.28738
G1 X72.265 Y73.694 E303.45233
G1 X72.265 Y74.582 E303.53341
G1 X127.735 Y130.052 E310.69837
G1 X127.735 Y130.939 E310.77944
G1 X72.265 Y75.47 E317.9444
G1 X72.265 Y76.357 E318.02547
G1 X127.735 Y131.827 E325.19043
G1 X127.735 Y132.715 E325.27151
G1 X72.265 Y77.245 E332.43646
G1 X72.265 Y78.133 E332.51754
G1 X127.735 Y133.603 E339.68249
G1 X127.735 Y134.49 E339.76357
G1 X72.265 Y79.02 E346.92853
G1 X72.265 Y79.723 E346.99268
G1 X72.168 Y79.811 E347.00466
G1 X127.735 Y135.378 E354.18215
G1 X127.735 Y136.266 E354.26323
G1 X71.703 Y80.234 E361.50078
G1 X71.238 Y80.656 E361.55818
G1 X127.735 Y137.153 E368.85579
G1 X127.735 Y138.041 E368.93687
G1 X70.773 Y81.079 E376.29454
G1 X70.615 Y81.223 E376.31404
G1 X70.615 Y81.809 E376.36757
G1 X127.735 Y138.929 E383.74565
G1 X127.735 Y139.723 E383.81818
G1 X129.385 Y141.223 E384.02185
G1 X129.385 Y141.466 E384.0441
G1 X70.615 Y82.696 E391.63531
G1 X70.615 Y83.584 E391.71639
G1 X129.385 Y142.354 E399.3076
G1 X129.385 Y143.242 E399.38868
G1 X70.615 Y84.472 E406.97989
G1 X70.615 Y85.359 E407.06097
G1 X129.385 Y144.129 E414.65218
G1 X129.385 Y145.017 E414.73325
G1 X70.615 Y86.247 E422.32447
G1 X70.615 Y86.477 E422.3455
G1 X72.265 Y87.977 E422.54918
G1 X72.265 Y88.785 E422.62291
G1 X129.385 Y145.905 E430.001
G1 X129.385 Y146.477 E430.05331
G1 X129.22 Y146.627 E430.07367
G1 X72.265 Y89.672 E437.43045
G1 X72.265 Y90.56 E437.51153
G1 X128.755 Y147.05 E444.80824
G1 X128.29 Y147.473 E444.86564
G1 X72.265 Y91.448 E452.1023
G1 X72.265 Y92.335 E452.18337
G1 X127.825 Y147.895 E459.35997
G1 X127.736 Y147.976 E459.37096
G1 X127.735 Y148.693 E459.43643
G1 X72.265 Y93.223 E466.60142
G1 X72.265 Y94.111 E466.68249
G1 X127.734 Y149.58 E473.84735
G1 X127.733 Y150.467 E473.92833
G1 X72.265 Y94.998 E481.09305
G1 X72.265 Y95.886 E481.17412
G1 X127.732 Y151.353 E488.33871
G1 X127.731 Y152.24 E488.41969
G1 X72.265 Y96.774 E495.58415
G1 X72.265 Y97.661 E495.66522
G1 X127.73 Y153.126 E502.82954
G1 X127.729 Y154.013 E502.91053
G1 X72.265 Y98.549 E510.07471
G1 X72.265 Y99.437 E510.15579
G1 X127.493 Y154.665 E517.28947
G1 X127.364 Y154.684 E517.30139
G1 X126.625 Y154.684 E517.3689
G1 X72.265 Y100.324 E524.39045
G1 X72.265 Y101.212 E524.47152
G1 X125.737 Y154.684 E531.37842
G1 X124.849 Y154.684 E531.45949
G1 X72.265 Y102.1 E538.25173
G1 X72.265 Y102.987 E538.3328
G1 X123.962 Y154.684 E545.01038
G1 X123.074 Y154.684 E545.09146
G1 X72.265 Y103.875 E551.65438
G1 X72.265 Y104.763 E551.73546
G1 X122.186 Y154.684 E558.18373
G1 X121.299 Y154.684 E558.2648
G1 X72.265 Y105.651 E564.59842
G1 X72.265 Y106.538 E564.67949
G1 X120.411 Y154.684 E570.89845
G1 X119.524 Y154.684 E570.97953
G1 X72.265 Y107.426 E577.08383
G1 X72.265 Y108.314 E577.16491
G1 X118.636 Y154.684 E583.15455
G1 X117.748 Y154.684 E583.23563
G1 X72.265 Y109.201 E589.11062
G1 X72.265 Y110.089 E589.1917
G1 X116.861 Y154.684 E594.95203
G1 X115.973 Y154.685 E595.03311
G1 X72.265 Y110.977 E600.67879
G1 X72.265 Y111.864 E600.75986
G1 X115.085 Y154.685 E606.29089
G1 X114.198 Y154.685 E606.37196
G1 X72.265 Y112.752 E611.78833
G1 X72.265 Y113.64 E611.86941
G1 X113.31 Y154.685 E617.17113
G1 X112.422 Y154.685 E617.2522
G1 X72.265 Y114.527 E622.43926
G1 X72.265 Y115.415 E622.52034
G1 X111.535 Y154.685 E627.59274
G1 X110.647 Y154.685 E627.67381
G1 X72.265 Y116.303 E632.63156
G1 X72.265 Y117.19 E632.71264
G1 X109.759 Y154.685 E637.55573
G1 X108.872 Y154.685 E637.6368
G1 X72.265 Y118.078 E642.36524
G1 X72.265 Y118.966 E642.44632
G1 X107.984 Y154.685 E647.0601
G1 X107.097 Y154.685 E647.14117
G1 X72.265 Y119.853 E651.6403
G1 X72.265 Y120.741 E651.72137
G1 X106.209 Y154.685 E656.10585
G1 X105.321 Y154.685 E656.18692
G1 X72.265 Y121.629 E660.45673
G1 X72.265 Y122.516 E660.53781
G1 X104.434 Y154.685 E664.69297
G1 X103.546 Y154.685 E664.77404
G1 X72.265 Y123.404 E668.81455
G1 X72.265 Y124.292 E668.89562
G1 X102.658 Y154.685 E672.82147
G1 X102.521 Y154.685 E672.83406
G1 X102.164 Y155.078 E672.88254
G1 X72.265 Y125.179 E676.7445
G1 X72.265 Y126.067 E676.82558
G1 X101.741 Y155.543 E680.63297
G1 X101.459 Y155.819 E680.66901
G1 X101.265 Y155.954 E680.69064
G1 X72.265 Y126.955 E684.43648
G1 X72.265 Y127.842 E684.51756
G1 X100.657 Y156.235 E688.18496
G1 X100.219 Y156.321 E688.22576
G1 X99.86 Y156.325 E688.25853
G1 X72.265 Y128.73 E691.82298
G1 X72.265 Y129.618 E691.90405
G1 X97.332 Y154.685 E695.14195
G1 X96.445 Y154.685 E695.22302
G1 X72.265 Y130.505 E698.34625
G1 X72.265 Y131.393 E698.42733
G1 X95.557 Y154.685 E701.43589
G1 X94.669 Y154.685 E701.51697
G1 X72.265 Y132.281 E704.41087
G1 X72.265 Y133.168 E704.49195
G1 X93.781 Y154.685 E707.27119
G1 X92.894 Y154.685 E707.35227
G1 X72.265 Y134.056 E710.01684
